-------------------- all the samples
hush

d1 $ s "808" <| n (run 6) -- 6 misc 808 sound
d1 $ slow 2 $ s "808bd" <| n (run 25) -- 25 rather similar 808 kicks!
d1 $ slow 2 $ s "808cy" <| n (run 25) -- 25 808 cymbals
d1 $ fast 2 $ s "808hc" <| n (run 5) -- 5 808 high congas
d1 $ fast 2 $ s "808ht" <| n (run 5) -- 5 808 high toms, bit noisy
d1 $ fast 2 $ s "808lc" <| n (run 5) -- 5 808 low congas, noisy
d1 $ fast 2 $ s "808lt" <| n (run 5) -- 5 808 low toms, noisy
d1 $ fast 2 $ s "808mc" <| n (run 5) -- 5 808 medium congas
d1 $ fast 2 $ s "808oh" <| n (run 5) -- 5 808 open hats
d1 $ slow 2 $ s "808sd" <| n (run 25) -- 25 808 snares
d1 $ s "909!4" -- just one 909 kick, but very nice
d1 $ slow 2 $ s "ab" <| n (run 12) -- nice subtle drum sounds
d1 $ s "ade" <| n (run 10) # cut 1 -- various long samples
d1 $ s "ades2" <| n (run 9) # gain 1.3 -- meh, short quiet noisy sounds
d1 $ s "ades3" <| n (run 7) -- short noisy sounds, lowish pitch
d1 $ s "ades4" <| n (run 6) -- short high pitched sounds
d1 $ loopAt 2 $ s "alex:1 alex:2" -- two acoustic drum loops
d1 $ slow 4 $ s "alphabet" <| n (shuffle 8 $ run 26) -- tts
d1 $ slow 2 $ s "amencutup" <| n (shuffle 8 $ run 32) # speed "{1,2,3}%8" -- dnb wisott
d1 $ slow 4 $ s "armora" <| n (run 7) -- probably useless low pitched noise
d1 $ s "arp" <| n (run 2) -- two synth notes, low and high, both c#?!?
d1 $ slow 4 $ s "arpy" <| n (run 11) -- as below
d2 $ slow 4 $ s "superpiano" <| n "c d f g a c6 d6 f6 g6 a6 c7"
d1 $ s "arpy" <| up "c d e f g a b c6" -- aha!
d1 $ slow 2 $ s "arpy" <| up "c'maj(3,8) f'maj(3,8) ef'maj(3,8,1) bf4'maj(3,8)" -- iya
d1 $ s "arpy" -- in estuary arpy comes out a tone too high in D major! can subtract 2 maybe fixed now
d1 $ slow 4 $ s "auto" <| n (run 11) -- various effected drum sounds
d1 $ slow 4 $ s "baa" <| n (run 7) -- sheep sounds, why?!?
d1 $ slow 4 $ s "baa2" <| n (run 7) -- rather simlar to the above? same?
d1 $ slow 2 $ s "bass" <| n (run 4) -- four short bass sounds, nasty abrupt release
d1 $ s "bass0" <| n (run 3) -- one highly distorted bass drum, plus?!?!?
d1 $ slow 8 $ s "bass1" <| n (run 30) -- thirty synth bass sounds, some long, f or c
d1 $ s "bass2" <| n "[ 0 .. 4 ]" -- five aggressive tonal kicks
d1 $ slow 4 $ s "bass3!44" # n (run 11) -- eleven bass sounds, odd mix of pitches
d1 $ slow 4 $ s "bassdm" <| n (run 24) -- 24 rather similar acoustic-ish kicks
d1 $ s "bassfoo" <| n (run 3) -- same bank as bass0
d1 $ s "battles" <| n (run 2) -- very reverb military snare, hit and roll
d1 $ slow 4 $ s "bd" <| n (run 24) -- lots of electo kicks, mostly quite similar
d1 $ s "bend" <| n (run 4) -- four subtle noisy sounds
-- Lazard - 4 O'Clock In The Morning (Promise Me - Beverley Craven)
d1 $ loopAt 8 $ s "bev:1" -- eight bar vocal keyboard/bass loop (mono)
d1 $ loopAt 8 $ s "bev:2" -- eight bar vocal keyboard/bass loop (stereo)
d1 $ s "bin" <| n (run 2) -- yup, two dustbin hits, kind of ok, could be a snare
d1 $ slow 4 $ s "birds" <| n (run 10) -- chaffinches, nightingales etc
d1 $ slow 2 $ s "birds3" <| n (run 19) -- very short noisy sounds, highish pitch
d1 $ s "bleep" <| n (run 13) -- rtd2 ish, loud!
d1 $ s "blip" <| n (run 13) -- two short pitched sounds, minor seventh apart
d1 $ slow 2 $ s "blue" <| n (run 2) -- two spoken fragments, unintelligible
d1 $ slow 2 $ s "bottle" <| n (run 13) -- short sounds, might be a bottle
setcps (125/60/4)
d1 $ slow 2 $ s "breaks125:0 breaks125:1" -- two one-bar breakbeats
setcps (152/60/4)
d1 $ slow 2 $ s "breaks152" -- one bar of amen at 152
setcps (157/60/4)
d1 $ s "breaks157" -- one bar break at 157
setcps (165/60/4)
d1 $ s "breaks165" -- one bar amen at 165
setcps (120/60/4)
d1 $ s "breath" -- one breath sound, pretty pointless
d1 $ s "bubble" <| n (run 8) -- actually sound more or less like kicks
d1 $ s "can" <| n (run 14) -- intersting percussive sounds
d1 $ s "can" <| n (run 16) # speed "0.125 1!15" -- iya
d1 $ s "casio" <| n (run 3) -- just three cheapo 'drum' sounds
d1 $ fast 2 $ s "casio" <| n "1 2 3 2" # speed 0.25 # cut 1 -- tak
d1 $ s "cb" -- omg what is that sound, so familiar! iya -- nearly same as 808:0
d1 $ s "cc" <| n (run 6) -- some loud reverby cymbals
d1 $ s "chin" <| n (run 4) # gain 2 -- very quiet synthetic clicks
d1 $ s "circus" <| n (run 3) -- three strange and pointless sounds
d1 $ s "clak" <| n (run 2) # gain 2 -- two quiet typewriters clicks, or clock ticks?
d1 $ s "click" <| n (run 4) -- four glitch sounds, maybe useful
d1 $ fast 2 $ s "clubkick" <| n (run 5) -- five similar very aggressive kicks
d1 $ s "co" <| n (run 4) -- various hats
d1 $ s "coins" # gain 2 -- very quiet coin chink
d1 $ s "control" <| n (run 2) -- two synth notes, out of tune
d1 $ slow 4 $ s "cosmicg" <| n (run 15) -- strange mix of bleeps and loud noise
d1 $ s "cp" <| n (run 2) -- two rather similar claps
d1 $ s "cr" <| n (run 6) -- six ride cymbs
d1 $ s "crow" <| n (run 4) -- two crow sounds twice
d1 $ slow 4 $ s "d" <| n (run 4) -- four misc rumbles
d1 $ s "db" <| n (scramble 13 $ run 13) -- hmm, pretty usable dry drumkit iya
d1 $ slow 16 $ s "diphone" <| n (run 38) -- tts
d1 $ slow 8 $ s "diphone2" <| n (run 12) -- tts
d1 $ loopAt 1 $ s "dist:1" -- 16 highly distorted 1 bar drum loops
d1 $ slow 4 $ s "dork2" <| n (run 4) -- four sounds, nae idea, voices in a space?
d1 $ slow 4 $ s "dorkbot" <| n (run 2) -- people saying dorkbot, two variations
d1 $ slow 4 $ s "dr" <| n (run 42) -- loud midi drumkit, nasty cutoff at end
d1 $ s "dr2" <| n (run 6) -- six clean electro drum sounds
d1 $ fast 2 $ s "dr55" <| n (run 4) -- four dr55 sounds
d1 $ fast 2 $ s "dr_few" <| n (run 8) -- eight loud drum sounds
d1 $ s "drumtraks" <| n (run 13) -- loudish kit
d1 $ s "e" <| n (run 8) -- 8 short and quiet glitchy sounds, similar
d1 $ slow 2 $ s "east" <| n (run 9) -- 9 'world' drum sounds, ok
d1 $ slow 4 $ s "em2" <| n (run 6) -- six longer sounds, kalimba, flute, loon?
d1 $ s "erk" -- voice 'one two three hit it'
d1 $ s "f" -- one short synth note, actually a bit below Eb
d1 $ s "feel" <| n (run 7) -- quite nice bank of 7 drum sounds
d1 $ slow 2 $ s "feelfx" <| n (run 8) -- varied effected sounds, bit longer, ok
d1 $ s "fest" -- voice saying 'bling?' or 'berlin?'
d1 $ slow 8 $ s "fire" -- longish sample of fire sounds, low ambience
d1 $ slow 2 $ s "flick" <| n (run 17) -- mix of 17 hits couple of long Cs
d1 $ slow 16 $ s "fm" <| n (run 17) -- whole bank of loops! inc '31 seconds…'
d1 $ slow 32 $ s "foo" <| n (run 27) -- every breakbeat evah
d1 $ slow 2 $ s "future" <| n (run 17) -- synthetic hits, mostly kicks
d1 $ slow 2 $ s "gab" <| n (run 10) -- bitcrushed hits
d1 $ s "gabba" <| n (run 4) -- bitcrushed kit, four sounds
d1 $ s "gabbaloud" <| n (run 4) -- wisott
d1 $ s "gabbalouder" <| n (run 4) -- wisott
d1 $ s "glasstap" <| n (run 3) -- three nondescript short dry sounds
d1 $ s "glitch" <| n (run 8) -- iya Eb/Ab stab at 5
d1 $ s "glitch2" <| n (run 8) -- same?!?
d1 $ slow 2 $ s "gretsch" <| n (run 24) -- acoustic kit, inc flams
d1 $ slow 4 $ s "gtr" <| n (run 3) -- three long C notes elect guitar
d1 $ s "h" <| n (run 7) -- short baby sounds?
d1 $ slow 8 $ s "hand" <| n (run 17) -- mix of quiet clap sounds, some longer
d1 $ s "hardcore" <| n (run 12) -- 12 synth drum hits
d1 $ s "hardkick" <| n (run 6) -- 6 rather loud crushed kicks
d1 $ s "haw" <| n (run 6) -- 6 odd short hits
d1 $ s "hc" <| n (run 6) -- 6 closed hats
d1 $ slow 2 $ s "hh" <| n (run 13) -- actually a mix of drum sounds, quiet, ok
d1 $ slow 2 $ s "hh27" <| n (run 13) -- another quiet set of electro drum hits
d1 $ slow 2 $ s "hit" <| n (run 6) -- strange hits, 04 one quite long
d1 $ s "hmm" -- female voice saying 'hmm'
d1 $ s "ho" <| n (run 6) -- six open hats, same but of varying length
d1 $ every 2 (fast 2) $ s "hoover" <| n (shuffle 6 $ run 6) -- six loud hoover bass soundss
d1 $ s "house" <| n (run 8) -- quite a nice kit, one pitched sound at 5 ~ Ebm
d1 $ s "ht" <| n (run 16) -- 16 syn toms, rather similar
d1 $ s "if" <| n (run 5) -- five bitcrushed hits
d1 $ s "ifdrums" <| n "0!4 1!4 2!4" -- kick, hat, snare
d1 $ s "incoming" <| n (run 8) -- very electro kit, meh
d1 $ slow 2 $  s "industrial" <| n (run 32) -- iya mix of metallic percussive sounds
d1 $ s "insect" <| n (run 3) # gain 2 -- three very quiet cricket sounds
d1 $ slow 4 $ s "invaders" <| n (run 18) -- space invaders sounds, varied lengths
d1 $ s "jazz" <| n (run 8) -- totally not jazzy at all kit!
d1 $ slow 8 $ s "jungbass" <| n (run 20) -- mostly longish sub-bass kind of sounds
d1 $ s "jungle" <| n (run 13) -- quiet 'jungle' kit, amen-ish
d1 $ slow 4 $ s "juno" <| n (run 12) -- lead/pad notes and chords, C/Cminor
d1 $ slow 4 $ s "jvbass" <| n (run 13) -- selection synth notes, black notes starting Gb
d1 $ s "kicklinn!4" -- wisott
d1 $ slow 4 $ s "koy" <| n 1 -- two koyaanisqatsi long samples, more or less sample
d1 $ slow 4 $ s "kurt" <| n (run 7) -- vocal samples with telephone eq?
d1 $ slow 2 $ s "latibro" <| n (run 8) -- pentatonic selection of open 12th synth samples
-- d1 $ s "latibro" # n 0
-- d2 $ s "superpiano" # n "[b3,fs4]"
d1 $ slow 4 $ s "led" -- two and a bit sample of drums plus intro bleed
d1 $ loopAt 2 $ s "led" # end 0.5 -- not quite right
d1 $ slow 2 $ s "led" # speed (0.835/2) # unit "c" # end 0.835 -- yaxu
d1 $ fast 2 $ s "less" <| n (run 4) -- four fairly extreme drum sounds, kind of cool
d1 $ slow 4 $ s "lighter" <| n (run 33) -- short quiet noisy hits high pitch meh
d1 $ s "linnhats" <| n (run 6) -- wisott
d1 $ s "lt" <| n (run 16) -- 16 loud synth low toms
d1 $ s "made" <| n (run 7) -- synthetic hits, not sure how to characterise!
d1 $ slow 4 $ s "made2" -- very nasty bitcrushed long sound!
d1 $ s "mash" <| n (run 2) -- low synth tom sound and sort of glitch sound, why
d1 $ s "mash2" <| n (run 4) -- longish low syntom sounds
d1 $ s "metal" <| n (run 10) -- a tiny high metal tink at 10 pitches
d1 $ s "metal" <| n (run 10) # up (-24) -- iya
d1 $ s "miniyeah" <| n (run 4) # up (-24) -- very short glitchy sounds, better -24
d1 $ slow 4 $ s "monsterb" <| n (run 6) -- no idea
d1 $ slow 8 $ s "moog" <| n (run 7) -- long low synth notes, various pitches
d1 $ s "mouth" <| n (run 15) -- iya short vocal sounds?
d1 $ slow 2 $ s "mp3" <| n (run 4) -- harsh noise hits, horrible
d1 $ s "msg" <| n (run 9) -- subtle quiet hits
d1 $ s "mt" <| n (run 16) -- 16 medium synth toms
d1 $ slow 4 $ s "mute" <| n (run 28) -- random collection of french horn notes and doubles
d1 $ slow 4 $ s "newnotes" <| n (run 15) -- short high sine notes, black notes?
d1 "noise" -- short quiet noise burst
d1 $ s "noise2" <| n (run 8) -- 8 short noise hits, three much louder than the others
d1 $ s "notes" <| n (run 15) -- same as newnotes, sines
d1 $ slow 4 $ s "numbers" <| n (run 9) -- female voice individual numbers
d1 $ s "oc" <| n (run 4) -- open-closed hats in single hits at four tempi
d1 $ s "odx" <| n (run 15) -- fairly aggressive kit, not very nice, new order apparently
d1 $ s "off" -- single short glitchy bass note C#
d1 $ slow 4 $ s "outdoor" <| n (run 8) -- odd ambient hits, 2 is quite long, interesting
d1 $ slow 4 $ s "pad" # n 3 -- four very assorted long sounds, not exactly pads
d1 $ slow 8 $ s "padlong" -- evolving m9 interval synth d2 $ s "superpiano" # up "[a2,g4]"
d1 $ slow 8 $ s "pebbles" -- very long, maybe pebbles on a beach
d1 $ s "perc" <| n (run 6) -- ok set of hits
d1 $ s "peri" <| n (run 15) -- collection of synth hits, ok
d1 $ slow 2 $ s "pluck" <| n (run 17) -- pizz cb notes various, 0 is B (ish)
d1 $ s "popkick" <| n (run 10) -- kicks, but also tuned-ish in there
d1 $ s "popkick" <| n 0 -- kicks, but also tuned-ish in there Bb, ok
d1 $ slow 4 $ s "print" <| n (run 11) -- dot matrix printer sounds, ok!
d1 $ slow 4 $ s "proc" <| n (run 2) -- two computer glitch sounds?
d1 $ s "procshort" <| n (run 8) -- computer sounds edited very short, clicky
d1 $ slow 2 $ s "psr" <| n (run 30) -- odd mix of ?game sounds mostly short 0 is a kalimba
d1 $ s "psr" <| n 0 -- odd mix of ?game sounds mostly short
d1 $ slow 4 $ s "rave" <| n (run 1) -- soul shout vocals 'are you ready' etc
d1 $ s "ravemono" <| n (run 4) -- mono versions of rave shouts
d1 $ s "realclaps" <| n (run 4) -- wisott
d1 "reverbkick!4" -- wisott
d1 $ s "rm" <| n (run 2) -- two identical retro drum machine toms
d1 $ s "rs!4" -- retro drum machine metro sound?
d1 $ slow 16 $ s "sax" <| n (run 22) -- chromatic collection of very long bari notes
d1 $ s "sd" <| n (run 2) -- two very similar retro snares, not that great!
d1 $ s "seawolf" <| n (run 3) -- noise hits
d1 $ s "sequential" <| n (run 8) -- dry acoustic-ish kit
d1 $ s "sf" <| n (run 18) -- kind of interesting collection of short hits, one C note at 0
d1 $ slow 4 $ s "sheffield" -- long ambience
d1 $ s "short" <| n (run 5) -- elctro kit sounds meh
d1 $ s "sid" <| n (run 12) -- ok, pretty usable sid sounds, melodic potential
d1 $ s "sine" <| n (run 6) -- sines with blunt envelopes, some very low
d1 $ slow 8 $ s "sitar" <| n (run 8) -- longish sitar gestures
d1 $ slow 4 $ s "space" <| n (run 18) -- strange mix of long/short sounds
d1 $ s "speakspell" <| n (run 12) # speed "{-1 2 0.25? -0.5}%6" -- short tts iya!
d1 $ slow 2 $ s "speech" <| n (run 7) -- male vocal fragments plus two short hits
d1 $ slow 4 $ s "speechless" <| n (run 10) -- bits of male tts
d1 $ s "speedupdown" <| n (run 9) -- short fragments of sound inc one loud noise burst
d1 $ slow 4 $ s "stab" <| n (run 23) -- polysynth/fm hits, sort of pitched not really
d1 $ s "stomp" <| n (run 10) -- mostly kicks
d1 $ slow 8 $ s "subroc3d" <| n (run 11) -- game sounds? some hits, one random melody
d1 $ slow 2 $ s "sundance" <| n (run 6) -- very quiet beeps and an explosion, useless
d1 $ slow 8 $ s "tabla" <| n (run 26) -- both hits and gestures
d1 $ slow 8 $ s "tabla2" <| n (run 46) -- multisampled single hits
d1 $ slow 8 $ s "tablex" <| n (run 3) -- male vocal fragments
d1 $ slow 8 $ s "tacscan" <| n (run 22) -- game sounds, some long
d1 $ s "tech" <| n (run 13) -- quiet but moderately interesting drum kit
d1 $ s "techno" <| n (run 7) -- hits, odd mix
d1 $ s "tink" <| n (run 5) # speed 0.125 -- high metallic sounds, pitched down iya
d1 $ s "tok" <| n (run 4) -- four kind of kick sounds
d1 $ slow 8 $ s "toys" <| n (run 13) -- kids toy & voice 'classical music' and 'chimes'
d1 $ slow 4 $ s "trump" <| n (run 11) -- trumpet falls one phrase, thin eq
d1 $ s "ul" <| n (run 10) -- sort of hits/kit, some character, verby, loud
d1 $ s "ulgab" <| n (run 5) -- short bitcrushed hits, usable
d1 $ s "uxay" <| n (run 3) -- one kick and two other sounds
d1 $ s "v" <| n (run 6) -- 6 mixed electronic sounds, kind of a kit
d1 $ s "voodoo" <| n (run 5) -- actually quite a nice five sound kit
d1 $ slow 2 $ s "wind" <| n (run 10) -- actually filtered white noise hits
d1 $ s "wobble" -- one subbass hit
d1 $ s "world" <| n (run 3) -- three kit hits, meh
d1 $ s "xmas" -- voice saying 'merry christmas'
d1 $ slow 2 $ s "yeah" <| n (run 31) -- big selection of short clicks and pops, usable

-- Strudel Samples

-- Percussion & Drums
d1 $ s "agogo" <| n (run 5) -- 5 agogo bell hits
d1 $ s "anvil" <| n (run 9) -- 9 anvil strike sounds
d1 $ slow 2 $ s "bassdrum1" <| n (run 8) -- 8 bass drum hits
d1 $ slow 2 $ s "bassdrum2" <| n (run 30) -- 30 bass drum variations
d1 $ slow 2 $ s "bongo" <| n (run 28) -- 28 bongo hits
d1 $ s "brakedrum" <| n (run 17) -- 17 brake drum percussion
d1 $ s "cabasa" <| n (run 6) -- 6 cabasa shaker sounds
d1 $ slow 2 $ s "cajon" <| n (run 18) -- 18 cajon box drum hits
d1 $ s "clap" <| n (run 10) -- 10 handclap sounds
d1 $ s "clash" <| n (run 10) -- 10 cymbal clashes
d1 $ s "clash2" <| n (run 5) -- 5 additional clash sounds
d1 $ s "clave" <| n (run 6) -- 6 clave stick hits
d1 $ slow 2 $ s "conga" <| n (run 34) -- 34 conga drum hits
d1 $ s "cowbell" <| n (run 13) -- 13 cowbell hits
d1 $ slow 2 $ s "darbuka" <| n (run 20) -- 20 darbuka goblet drum hits
d1 $ s "framedrum" <| n (run 18) -- 18 frame drum hits
d1 $ s "guiro" <| n (run 5) -- 5 guiro scraper sounds
d1 $ s "hihat" <| n (run 15) -- 15 hi-hat variations
d1 $ s "ratchet" <| n (run 8) -- 8 ratchet percussion sounds
d1 $ s "shaker_large" <| n (run 6) -- 6 large shaker sounds
d1 $ s "shaker_small" <| n (run 16) -- 16 small shaker variations
d1 $ s "slapstick" <| n (run 5) -- 5 slapstick whip crack sounds
d1 $ s "sleighbells" <| n (run 6) -- 6 sleighbell jingles
d1 $ s "slitdrum" <| n (run 6) -- 6 slit/tongue drum hits
d1 $ s "snare_hi" <| n (run 8) -- 8 high-tuned snare hits
d1 $ slow 2 $ s "snare_low" <| n (run 20) -- 20 low-tuned snare hits
d1 $ slow 4 $ s "snare_modern" <| n (run 72) -- 72 modern snare samples!
d1 $ s "snare_rim" <| n (run 4) -- 4 snare rim shots
d1 $ s "tambourine" <| n (run 7) -- 7 tambourine hits
d1 $ s "tambourine2" <| n (run 7) -- 7 alternative tambourine sounds
d1 $ slow 2 $ s "timpani" <| n (run 30) -- 30 timpani hits
d1 $ slow 16 $ s "timpani2" <| n (run 204) -- 204 timpani multisamples!
d1 $ slow 2 $ s "timpani_roll" <| n (run 10) -- 10 timpani roll crescendos
d1 $ s "tom_rim" <| n (run 6) -- 6 tom rim shots
d1 $ s "tom_stick" <| n (run 8) -- 8 tom stick hits
d1 $ s "tom2_mallet" <| n (run 8) -- 8 tom with mallet
d1 $ s "tom2_rim" <| n (run 6) -- 6 tom rim shots (alternate)
d1 $ s "tom2_stick" <| n (run 8) -- 8 tom stick hits (alternate)
d1 $ s "vibraslap" <| n (run 4) -- 4 vibraslap rattles
d1 $ s "woodblock" <| n (run 10) -- 10 woodblock hits

-- Melodic Percussion & Metallophones
d1 $ s "balafon" <| n (run 5) -- 5 balafon (African xylophone) notes
d1 $ s "balafon_hard" <| n (run 5) -- 5 hard-struck balafon notes
d1 $ s "balafon_soft" <| n (run 5) -- 5 soft balafon notes
d1 $ s "belltree" <| n (run 3) -- 3 bell tree cascades
d1 $ s "fingercymbal" <| n (run 1) -- 1 finger cymbal ting
d1 $ s "flexatone" <| n (run 8) -- 8 flexatone wobble tones
d1 $ s "glockenspiel" <| n (run 6) -- 6 glockenspiel notes
d1 $ s "gong" <| n (run 7) -- 7 gong strikes
d1 $ s "gong2" <| n (run 6) -- 6 alternative gong sounds
d1 $ s "handchimes" <| n (run 11) -- 11 hand chime notes
d1 $ slow 2 $ s "kalimba2" <| n (run 25) -- 25 kalimba (thumb piano) notes
d1 $ slow 2 $ s "kalimba3" <| n (run 22) -- 22 kalimba variations
d1 $ slow 2 $ s "kalimba4" <| n (run 22) -- 22 more kalimba samples
d1 $ s "kalimba5" <| n (run 14) -- 14 additional kalimba notes
d1 $ s "marimba" <| n (run 10) -- 10 marimba notes
d1 $ s "marktrees" <| n (run 6) -- 6 mark tree chime cascades
d1 $ slow 2 $ s "triangles" <| n (run 37) -- 37 triangle variations
d1 $ s "tubularbells" <| n (run 6) -- 6 tubular bell notes
d1 $ s "tubularbells2" <| n (run 11) -- 11 alternative tubular bells
d1 $ s "vibraphone" <| n (run 11) -- 11 vibraphone notes
d1 $ s "vibraphone_bowed" <| n (run 6) -- 6 bowed vibraphone notes
d1 $ s "vibraphone_soft" <| n (run 11) -- 11 soft vibraphone notes
d1 $ s "xylophone_hard_ff" <| n (run 8) -- 8 hard xylophone fortissimo
d1 $ s "xylophone_hard_pp" <| n (run 8) -- 8 hard xylophone pianissimo
d1 $ s "xylophone_medium_ff" <| n (run 8) -- 8 medium xylophone fortissimo
d1 $ s "xylophone_medium_pp" <| n (run 8) -- 8 medium xylophone pianissimo
d1 $ s "xylophone_soft_ff" <| n (run 8) -- 8 soft xylophone fortissimo
d1 $ s "xylophone_soft_pp" <| n (run 8) -- 8 soft xylophone pianissimo
d1 $ s "wineglass" <| n (run 1) -- 1 singing wine glass tone
d1 $ s "wineglass_slow" <| n (run 1) -- 1 slow wine glass sustain

-- Keyboards & Piano
d1 $ slow 2 $ s "clavisynth" <| n (run 13) -- 13 FM electric piano notes
d1 $ slow 2 $ s "fmpiano" <| n (run 15) -- 15 FM piano notes
d1 $ slow 2 $ s "kawai" <| n (run 37) -- 37 Kawai piano samples
d1 $ slow 2 $ s "piano" <| n (run 30) -- 30 acoustic piano notes
d1 $ slow 2 $ s "piano1" <| n (run 15) -- 15 alternative piano samples
d1 $ slow 4 $ s "steinway" <| n (run 42) -- 42 Steinway grand piano notes

-- Organ
d1 $ slow 2 $ s "organ_4inch" <| n (run 15) -- 15 4-inch organ pipe notes
d1 $ slow 2 $ s "organ_8inch" <| n (run 15) -- 15 8-inch organ pipe notes
d1 $ slow 2 $ s "organ_full" <| n (run 15) -- 15 full organ registration notes
d1 $ slow 2 $ s "pipeorgan_loud" <| n (run 11) -- 11 loud pipe organ notes
d1 $ slow 2 $ s "pipeorgan_loud_pedal" <| n (run 5) -- 5 loud organ pedal notes
d1 $ slow 2 $ s "pipeorgan_quiet" <| n (run 11) -- 11 quiet pipe organ notes
d1 $ slow 2 $ s "pipeorgan_quiet_pedal" <| n (run 5) -- 5 quiet organ pedal notes

-- Plucked Strings
d1 $ slow 2 $ s "dantranh" <| n (run 5) -- 5 Vietnamese dan tranh zither notes
d1 $ slow 2 $ s "dantranh_tremolo" <| n (run 4) -- 4 dan tranh tremolo notes
d1 $ slow 2 $ s "dantranh_vibrato" <| n (run 4) -- 4 dan tranh vibrato notes
d1 $ slow 2 $ s "folkharp" <| n (run 15) -- 15 folk harp notes
d1 $ slow 2 $ s "harp" <| n (run 23) -- 23 concert harp notes
d1 $ slow 2 $ s "psaltery_bow" <| n (run 11) -- 11 bowed psaltery notes
d1 $ slow 2 $ s "psaltery_pluck" <| n (run 11) -- 11 plucked psaltery notes
d1 $ slow 2 $ s "psaltery_spiccato" <| n (run 11) -- 11 psaltery spiccato
d1 $ s "strumstick" <| n (run 14) -- 14 strumstick dulcimer notes

-- Wind Instruments - Recorders
d1 $ slow 2 $ s "recorder_alto_stacc" <| n (run 6) -- 6 alto recorder staccato
d1 $ slow 2 $ s "recorder_alto_sus" <| n (run 7) -- 7 alto recorder sustained
d1 $ slow 2 $ s "recorder_alto_vib" <| n (run 7) -- 7 alto recorder vibrato
d1 $ slow 2 $ s "recorder_bass_stacc" <| n (run 14) -- 14 bass recorder staccato
d1 $ slow 2 $ s "recorder_bass_sus" <| n (run 6) -- 6 bass recorder sustained
d1 $ slow 2 $ s "recorder_bass_vib" <| n (run 14) -- 14 bass recorder vibrato
d1 $ slow 2 $ s "recorder_soprano_stacc" <| n (run 7) -- 7 soprano recorder staccato
d1 $ slow 2 $ s "recorder_soprano_sus" <| n (run 8) -- 8 soprano recorder sustained
d1 $ slow 2 $ s "recorder_tenor_stacc" <| n (run 7) -- 7 tenor recorder staccato
d1 $ slow 2 $ s "recorder_tenor_sus" <| n (run 8) -- 8 tenor recorder sustained
d1 $ slow 2 $ s "recorder_tenor_vib" <| n (run 12) -- 12 tenor recorder vibrato

-- Wind Instruments - Other
d1 $ slow 2 $ s "didgeridoo" <| n (run 12) -- 12 didgeridoo drones
d1 $ slow 2 $ s "harmonica" <| n (run 9) -- 9 harmonica notes
d1 $ slow 2 $ s "harmonica_soft" <| n (run 10) -- 10 soft harmonica notes
d1 $ slow 2 $ s "harmonica_vib" <| n (run 10) -- 10 harmonica vibrato notes
d1 $ slow 2 $ s "ocarina" <| n (run 11) -- 11 ocarina notes
d1 $ slow 2 $ s "ocarina_small" <| n (run 10) -- 10 small ocarina notes
d1 $ slow 2 $ s "ocarina_small_stacc" <| n (run 13) -- 13 small ocarina staccato
d1 $ slow 2 $ s "ocarina_vib" <| n (run 10) -- 10 ocarina vibrato notes
d1 $ slow 2 $ s "sax" <| n (run 12) -- 12 saxophone notes
d1 $ slow 2 $ s "sax_stacc" <| n (run 15) -- 15 saxophone staccato
d1 $ slow 2 $ s "sax_vib" <| n (run 12) -- 12 saxophone vibrato
d1 $ slow 2 $ s "saxello" <| n (run 3) -- 3 saxello (soprano sax) notes
d1 $ slow 2 $ s "saxello_stacc" <| n (run 3) -- 3 saxello staccato
d1 $ slow 2 $ s "saxello_vib" <| n (run 2) -- 2 saxello vibrato
d1 $ slow 2 $ s "super64" <| n (run 13) -- 13 Commodore 64 SID chip notes
d1 $ slow 2 $ s "super64_acc" <| n (run 13) -- 13 C64 accented notes
d1 $ slow 2 $ s "super64_vib" <| n (run 13) -- 13 C64 vibrato notes

-- Cymbals & Sustained Percussion
d1 $ slow 2 $ s "sus_cymbal" <| n (run 25) -- 25 suspended cymbal hits
d1 $ slow 2 $ s "sus_cymbal2" <| n (run 23) -- 23 alternative suspended cymbals

-- Special Effects & Textures
d1 $ s "ballwhistle" <| n (run 2) -- 2 ball whistle slides
d1 $ slow 4 $ s "oceandrum" <| n (run 3) -- 3 ocean drum wave textures
d1 $ s "siren" <| n (run 5) -- 5 siren wails
d1 $ s "trainwhistle" <| n (run 6) -- 6 train whistle blasts

-- !!!! Likes
d1 $ slow 4 $ s "em2" <| n (run 6)
d1 $ slow 2 $ s "flick" <| n (run 17) -- mix of 17 hits couple of long Cs
d1 $ slow 16 $ s "fm" <| n (run 17) -- whole bank of loops! inc '31 seconds…'
d1 $ slow 32 $ s "foo" <| n (run 27) -- every breakbeat evah
d1 $ slow 2 $ s "gretsch" <| n (run 24) -- acoustic kit, inc flams
d1 $ s "hardkick" <| n (run 6) -- 6 rather loud crushed kicks
d1 $ slow 2 $  s "industrial" <| n (run 32) -- iya mix of metallic percussive sounds
d1 $ s "kicklinn!4" -- wisott
d1 $ s "lt" <| n (run 16) -- 16 loud synth low toms
d1 $ s "metal" <| n (run 10) # up (-24) -- iya
d1 $ slow 8 $ s "moog" <| n (run 7) -- long low synth notes, various pitches
d1 $ s "mouth" <| n (run 15)
d1 $ s "msg" <| n (run 9) -- subtle quiet hits
d1 $ s "mt" <| n (run 16) -- 16 medium synth toms
d1 $ slow 4 $ s "newnotes" <| n (run 15) -- short high sine notes, black notes?
d1 $ slow 8 $ s "padlong" -- evolving m9 interval synth d2 $ s "superpiano" # up "[a2,g4]"
d1 $ slow 8 $ s "pebbles" -- very long, maybe pebbles on a beach
d1 $ s "peri" <| n (run 15) -- collection of synth hits, ok
d1 $ slow 2 $ s "pluck" <| n (run 17) -- pizz cb notes various, 0 is B (ish)
d1 $ s "popkick" <| n (run 10) -- kicks, but also tuned-ish in there
d1 $ s "realclaps" <| n (run 4) -- wisott
d1 $ s "sf" <| n (run 18) -- kind of interesting collection of short hits, one C note at 0
d1 $ s "sid" <| n (run 12) -- ok, pretty usable sid sounds, melodic potential
d1 $ slow 8 $ s "sitar" <| n (run 8) -- longish sitar gestures
d1 $ slow 4 $ s "stab" <| n (run 23) -- polysynth/fm hits, sort of pitched not really
d1 $ s "stomp" <| n (run 10) -- mostly kicks
d1 $ slow 8 $ s "tabla" <| n (run 26) -- both hits and gestures
d1 $ slow 8 $ s "tabla2" <| n (run 46) -- multisampled single hits
d1 $ slow 8 $ s "tacscan" <| n (run 22) -- game sounds, some long
d1 $ s "tech" <| n (run 13) -- quiet but moderately interesting drum kit
d1 $ s "tink" <| n (run 5) # speed 0.125 -- high metallic sounds, pitched down iya
d1 $ s "ul" <| n (run 10) -- sort of hits/kit, some character, verby, loud
d1 $ s "ulgab" <| n (run 5) -- short bitcrushed hits, usable
d1 $ s "v" <| n (run 6) -- 6 mixed electronic sounds, kind of a kit
d1 $ s "voodoo" <| n (run 5) -- actually quite a nice five sound kit
d1 $ slow 2 $ s "wind" <| n (run 10) -- actually filtered white noise hits
d1 $ slow 2 $ s "yeah" <| n (run 31) -- big selection of short clicks and pops, usable

-- samples-extra Samples

-- Drum & Bass Production Kit (bsXXX series)
d1 $ s "bsbass" <| n (run 9) -- 9 bass drum samples
d1 $ slow 2 $ s "bsguitar" <| n (run 19) -- 19 guitar/string hits
d1 $ s "bshihat" <| n (run 3) -- 3 hi-hat samples
d1 $ s "bskick" <| n (run 9) -- 9 kick drum samples
d1 $ slow 2 $ s "bsnoise" <| n (run 22) -- 22 noise/texture samples
d1 $ s "bsperc" <| n (run 7) -- 7 percussion hits
d1 $ s "bssnare" <| n (run 8) -- 8 snare drum samples
d1 $ slow 2 $ s "bsvocals" <| n (run 13) -- 13 vocal chops/samples

-- Electronic Drum Kits
d1 $ s "clap" <| n (run 8) -- 8 clap samples (distinct from SuperDirt default)
d1 $ s "kick" <| n (run 21) -- 21 kick drum variations
d1 $ slow 2 $ s "snare" <| n (run 90) -- 90 snare variations!
d1 $ s "hi" <| n (run 8) -- 8 high-pitched hits
d1 $ s "lo" <| n (run 8) -- 8 low-pitched hits

-- CPU & Digital Textures
d1 $ slow 2 $ s "cpu" <| n (run 23) -- 23 digital/glitch sounds
d1 $ slow 2 $ s "cpu2" <| n (run 29) -- 29 additional CPU/glitch textures

-- Breakbeats & Loops
d1 $ slow 4 $ s "break" <| n (run 33) -- 33 breakbeat loops
d1 $ slow 4 $ s "rash" <| n (run 72) -- 72 Rashad/footwork drum hits

-- Bass & Synth
d1 $ s "dbass" <| n (run 12) -- 12 deep bass hits
d1 $ s "dsynth" <| n (run 3) -- 3 synth patches

-- Sound Design & FX
d1 $ slow 16 $ s "foley" <| n (run 287) -- 287 foley sound effects!
d1 $ s "claus" <| n (run 16) -- 16 Klaus-style samples (probably Santa/Christmas themed)

hush

-- Examples using liked

d1 $ s "feelfx" # n 2 # note "<c e g b> <d f a c>"
d1 $ s "feelfx" # n 2 # note ("<c e g b> <d f a c>"|+ 2)
d1 $ fast 10 $ s "tink" # n 0 # note ("<c e g b> <d f a c>"|- 24)

d1 $ n "c'maj e'min c'min" # s "supermandolin pluck"
d2 $ n "g2'maj f3'maj d5'min" # s "superpiano"
d3 $ n "a b c" # s "supertron"
d1 $ n "[0 11]/8" # "superfm" #octave 4
  # amp1 1
  # ratio2 2.5
  # mod12 4
  # egrate11 0.3 # eglevel11 1 -- slow attack
  # egrate12 1  # eglevel12 0.1 -- fast decay to 1/2 amp
  # egrate13 0.5 # eglevel13 0.8 -- 2nd amp swell
  # egrate14 0.4 # eglevel14 0 -- decay of mod to 0

d1 $ sound "jvbass(3,8)"
anticipate 1 $ sound "bd sn" # delay "0.5" # room "0.3"

d1 $ n (slow 2 $ fmap (*7) $ run 8)
  # s "supergong"
  # decay "[1 0.2]/4"
  # voice "[0.5 0]/8"


d1 $ s "moog" # n "<0 1 2>" # legato 1 # cutoffbus 1 (segment 32 $ range 200 2400 $ saw) # resonance 0.2

d1 $ s "bd*8" # pan (slow 4 $ sine)
d1 $ s "moog*16" # n "<0 1 2>" # legato 1 # cutoff (range 200 2400 $ saw) # resonance 0.2

d1 $ n "0 .. 3" # sound "arpy"

d1 $ slow 2 $ n "0 1 2 3 3 2 1 0" # sound "arpy"
d1 $ palindrome $ n (run 4) # sound "arpy"

d1 $ sound "[voodoo voodoo:3, arpy arpy:4 arpy:2]"

d1 $ sound "[voodoo voodoo:3, arpy arpy:4 arpy:2]"
d1 $ sound "{voodoo voodoo:3, arpy arpy:4 arpy:2}"
d1 $ sound "[drum bd hh bd, can can:2 can:3 can:4 can:2]"
d1 $ sound "{drum bd hh bd, can can:2 can:3 can:4 can:2}"
d1 $ sound "[bd sn, can:2 can:3 can:1, arpy arpy:1 arpy:2 arpy:3 arpy:5]"
d1 $ sound "{bd sn, can:2 can:3 can:1, arpy arpy:1 arpy:2 arpy:3 arpy:5}"

d1 $ sound "bd(5,8)"

d1 $ sound "bd(5,8,2)"

d1 $ n "2" # s "tabla:13" 

hush

d1 $ n "0 0 [3 4] 5" # s "cpu" # squiz "7 3 1 5 3 4 3"

d1 $ n "0 0 [3 4] 5" # s "cpu" # crush "3 8"

d1 $ sound "[hh*16, kick:8 snare:4 [~ kick:8] snare]" # gain "[1 1.2]*8"

d1 $ sound "numbers:1 numbers:2 numbers:3 numbers:4" # pan "0 0.5 1"

d1 $ sound "kurt:4 kurt:4"

d1 $ slow 2 $ n "0 2 [3 5] [4 7]" # sound "cpu"

d1 $ slow "0.5 <1 2>" $
    n "{0 2 [3 5] [4 <7 6>], 0*2 3*3 0}" # sound "cpu"
    # squiz "<8 1 2>"
    # speed 2

d1 $ n "0 1 2 3" # sound "numbers" |<| n "4 5"

d1 $ n "0 1 2 [3 5]" # sound "cpu"
  |+| n "<[4 5 3 2] [5 4 3] [6 5]>"
  # squiz 2

  hush

d1 $ every 3 (fast 2) $ sound "bd sd ~ cp"

d1 $ every 4 rev $ every 2 (hurry 2) $ every 3 (# squiz 5) $ sound "bd sd [~ bd] [cp bd*2]"

d2 $ jux rev $ sound "sax(3,8)" # legato 1 # n 3 # note "<[9 7] 5 [9 12]>" # djf 0.7 # sz 0.4 # room 0.4

d1 $ jux rev $ speed "<1 0.5 0.75>(<3 5>,8)" # sound "bev" # cut 1 # room 0.4 # sz 0.9 # gain 1.3


d1 $ splice 8 ("0 1 2 3 4 5") $ sound "break:4" # gain 1.1
d2 $ sound "kick snare*2 clap:4" # speed 2

d1 $ slow 2 $ loopAt 2 $ chop 4 $ sound "break:8 break:9"

d1 $ slow 2 $ loopAt 2 $ striate 32 $ sound "break:8 break:9"

d1 $ loopAt 16 $ striate 32 $ sound "bev"

d1 $ slow 4 $ jux rev $ loopAt 16 $ striate 128 $ sound "bev*4"

d1 $ sound "bd*32" # shape (slow 2 sine)

d1 $ sound "drum:5(5,8,<0 4>)" # lpf (range 200 8000 rand) # lpq 0.2

d1 $ sound (struct "t t ~ t" $ choose ["bd", "arpy", "kick"])

d1 $ sound (randcat ["kick snare:4 [~ kick] snare:5",
                     "kick snare:4 . hc(5,8)",
                     "snare:3(9,16)"
                    ]
           )



d1 $ sound (randcat ["kick snare:4 [~ kick] snare:5", "kick snare:4 . hc(5,8)"])

d1 $ stripe 2 $ n "0 4*2 ~ 4 2 4 5 ~" # sound "cpu2" # squiz 2

d1 $ degrade $ sound "bd*8"

d1 $ sound "bd*8?"

d1 $ degradeBy 0.6 $ sound "bd*8"

d1 $ sometimes (# crush 4) $ n "0 ~ 3 1 5 2 ~ 5" # sound "cpu"

d1 $ sometimesBy 0.3 (# crush 4) $ n "0 ~ 3 1 5 2 ~ 5" # sound "cpu"

d1 $ note "csssssss g" # s "superpiano"

d1 $ note "c5 c6 c4 c6" # s "superpiano"

d1 $ note "c a f e" # sound "dbass" # n "<0 1 2>"

d1 $ n "c a f e" # sound "rash" |+ n 24 |+ n "<0 2 7 12>"

d1 $ note "c a f e" # sound "superpiano" # octave "<4 6 3>"

d1 $ n "<g'maj b'maj c'maj c'min>" # s "supermandolin" # room 0.6 # sz 0.9

d1 $ qtrigger $ jux ((|- n "12") . rev) $ struct "t(5,8,<0 4>)" $ n "<g'maj b'maj c'maj c'min>" # s "supermandolin" # room 0.6 # sz 0.9

import Sound.Tidal.Chords

chordList

-- Try some out:
d1 $ n "c'sevenFlat9 a'm9sharp5" # sound "supermandolin"

-- Here's the raw data:
chordTable

-- What happened to 1, 3, 6, 8, and 10?
-- You can get to them by adding 's' for 'sharp', to add 1 to a note:
-- Again, this all ends up being turned into plain note numbers. These
-- two patterns are the same:
d1 $ n "c'sevenFlat9 a'm9sharp5" # sound "supermandolin"

d1 $ n "[0,4,7,10,13] [9,10,23]" # sound "supermandolin"

d1 $ arp "updown thumbup" $ n "<c'maj'4 e'min7'4>" # s "superpiano"

d1 $ jux rev $ arp "<updown thumbup pinkyupdown converge diverge>" $ n "<c4'maj'6 e4'min7'8 g5'maj'5 a5'maj'4>" # s "superpiano" # room 0.3 # sz 0.7

-- custom synth
--https://www.youtube.com/watch?v=ZM8OEcjlkzo

-- SynthDef(\test, {
--  |out,sustain=1,freq=440,speed=1,begin=0,end=1,pan,accelerate,offset,clamp=1|
--  var line, env, volume, tone, outAudio;
--  freq=freq*speed;
--  line = Line.ar(begin,end,sustain/speed,doneAction: Done.freeSelf);
--  env = Env.new(levels: [0, 1, 0.9, 0], times: [0.1, 0.5, 1], curve: [-5, 0, -5]);
--  volume = IEnvGen.ar(env, line);
--  tone = (Pulse.ar(freq,line)+Pulse.ar(freq*1.01,line)+Pulse.ar(freq*0.99,line))/3;
--  outAudio = RLPF.ar(tone*volume, 20000*clamp*volume,0.3);
--  OffsetOut.ar(out,DirtPan.ar(outAudio, ~dirt.numChannels, pan, volume));
-- }).add;

hush

d1 $ off "0.25" (|+ n 7) $ n "c e" # sound "supermandolin"

d1 $ n (scale "ritusen" $ "0 [7 2] 3 2" |+ (irand 3)) # sound "superpiano"

scaleList

d1 $ ur 16 "[bdsd, ~ claps, ~ [bass bass:crunch] ~ bass]"
  [("bdsd", sound "bd [~ sd] bd sd" # squiz 2),
   ("claps", sound "clap:4*2 clap:4*3"
     # delay 0.8 # dt "t" # dfb 0.4
     # orbit 4 # speed 4
   ),
   ("bass", struct "t(3,8)" $ sound "dbass" # shape 0.7 # speed "[1, ~ 2]")
  ]
  [("crunch", (# crush 3))
  ]

d1 $ every 3 (rev) $ every 3 (chop 8) $
  sound "bd [~ sd] bd sd" # squiz 2

d1 $ 0.25 <~ (n "[0 [1 0] 6*2 [3 4*2], 8(5,8)]" # sound "cpu2")

d1 $ ("<0 0.25 0.75>" ~>) $ n "[0 [1 0] 6*2 [3 4*2], 8(5,8)]" # sound "cpu2" # crush 4

d1 $ struct "t f t t f t f f" $ sound "snare:4"
d1 $ struct "t(3,8)" $ sound "snare:4"

d1 $ stack [struct "t(3,8)" $ sound "kick:4",
            struct "f(3,8)" $ sound "snare:4"
           ]

d1 $ stitch "t(3,8)" (sound "kick:4") (sound "snare:4")

d1 $ stitch "t(<3 5>,<8 8 8 6>,<0 2 4>)" (sound "kick:4") (sound "hc")
d1 $ sound (stitch "t(<3 5>,<8 8 8 6>,<0 2 4>)" "kick:4" "hc")

drawLine $ struct "<1 0>(3,8)" "a"

d1 $ stitch "t f t [t f]*2 f ~ t f" (sound "kick:4") (sound "hc") # room 0.2 # sz 0.8

d1 $ sew "t f" (sound "kick") (sound "clap:4")

d1 $ chunk 4 (hurry 2) $ n "0 .. 7" # sound "cpu"

d1 $ sew (iter 4 "t f")
  (chunk 4 (hurry 2) $ n "0 .. 7" # sound "cpu")
  (n "0 .. 7" # sound "cpu2" # speed 1.5 # squiz 2)

fit :: Int -> [a] -> Pattern Int -> Pattern a
d1 $ n (fit 0 [9,10,11,12,13,14] "0 1 2 3") # s "alphabet"

d2 $ n "0 ~ 2 [3*2 4*2]" # sound "cpu" # speed 2

d1 $ note (fit 2 [0,2,7,5,12] "0 ~ 1 [2 3]") # sound "supermandolin" # legato 2 # gain 1.3

d1 $ cat [sound "bd*2 sn", sound "arpy jvbass*2", sound "drum*2"]

d1 $ whenmod 5 3 (striate 3) $ stack [ 
  sound "bd bd*2", 
  sound "hh*2 [sn cp] cp future*4", 
  sound "arpy" +| n "0 .. 15"
] # speed "[[1 0.8], [1.5 2]*2]/3"


d1 $ iter 4 $ sound "bd hh sn cp"

d1 $ jux rev $ chunk 4 (fast 2 . (|- n 12)) $ off 0.25 (|+ 7) $ struct (iter 4 "t(5,8)")
  $ n (scale "major" "0 .. 7") # sound "superpiano"

d1 $ jux rev $ chunk 4 (fast 2 . (|- n 12)) $ off 0.25 (|+ 7) $ struct (iter 4 "t(5,8)")
  $ n (scale "bhairav" "0 .. 7") # sound "superpiano"

chordL

d1 $ stack
  [ note "<d4 c4 a3 bf3>" # s "bass1:18" # legato 1 # metatune 1
  , note "[~ d5'min'o]*4" # s "superpiano" # release 0.4
  ] # cps 0.35

d1 $ bite 4 "0 1*2 2*2 [~ 3]" $ n "0 .. 7" # sound "drum"

d1 $ chew 4 "0 1*2 2*2 [~ 3]" $ n "0 .. 7" # sound "drum"

d1 $ smash 6 [2,3,4] $ sound "ho ho:2 ho:3 hc"


saw = sig $ \t -> mod' (fromRational t) 1

let pats =
      [
        ("a", stack [n "c4 c5 g4 f4 f5 g4 e5 g4" # s "superpiano" # gain "0.7",
                     n "[c3,g4,c4]" # s "superpiano"# gain "0.7"
                    ]
        ),
        ("b", stack [n "d4 c5 g4 f4 f5 g4 e5 g4" # s "superpiano" # gain "0.7",
                     n "[d3,a4,d4]" # s "superpiano"# gain "0.7"
                    ]
        ),
        ("c", stack [n "f4 c5 g4 f4 f5 g4 e5 g4" # s "superpiano" # gain "0.7",
                     n "[f4,c5,f4]" # s "superpiano"# gain "0.7"
                    ]
        )
      ]
in
d1 $ ur 12 "a b c" pats []


let pats =
      [
        ("a", stack [n "c4 c5 g4 f4 f5 g4 e5 g4" # s "superpiano" # gain "0.7",
                     n "[c3,g4,c4]" # s "superpiano"# gain "0.7"
                    ]
        ),
        ("b", stack [n "d4 c5 g4 f4 f5 g4 e5 g4" # s "superpiano" # gain "0.7",
                     n "[d3,a4,d4]" # s "superpiano"# gain "0.7"
                    ]
        ),
        ("c", stack [n "f4 c5 g4 f4 f5 g4 e5 g4" # s "superpiano" # gain "0.7",
                     n "[f4,c5,f4]" # s "superpiano"# gain "0.7"
                    ]
        )
      ]
    fx = [("reverb", (# (room 0.8 # sz 0.99 # orbit 1))),
          ("faster", fast 2)
         ]
in
d1 $ ur 12 "a b:reverb c:faster" pats fx

let pats = [("drums", s "drum cp*2"),
            ("melody", s "arpy:2 arpy:3 arpy:5"),
            ("craziness", s "cp:4*8" # speed ( sine + 0.5))
           ]
    fx = [("higher", (# speed 2))]
in
d1 $ ur 8 "[drums, melody] [drums,craziness,melody] melody:higher" pats fx


d1 $ seqP [
  (0, 12, sound "bd bd*2"),
  (4, 12, sound "hh*2 [sn cp] cp future*4"),
  (8, 12, sound (samples "arpy*8" (run 16)))
]

d1 $ qtrigger $ seqP [
  (0, 12, sound "bd bd*2"),
  (4, 12, sound "hh*2 [sn cp] cp future*4"),
  (8, 12, sound (samples "arpy*8" (run 16)))
]

d1 $ qtrigger $ seqPLoop [
  (0, 12, sound "bd bd*2"),
  (4, 12, sound "hh*2 [sn cp] cp future*4"),
  (8, 12, sound (samples "arpy*8" (run 16)))
]

d1  $ s "omi" <| note "a [~ g] [c b] [g gs]" 
    # octave "<3 4 5 6 7 8>"
    # sustain "{1 2 1}%8"

d1  $ s "braids" <| note "a [~ g] [c b] [g gs]" 
    # octave "<3 4 5 6 7 8>"
    # sustain "{1 2 1}%8"
    # model (slow 48 $ run 48)
    # timbre (slow 3 sine)
    # color (saw)

-- The Euclidean Algorithm Generates Traditional Musical Rhythms by Toussaint
-- (2,5) : A thirteenth century Persian rhythm called Khafif-e-ramal.
-- (3,4) : The archetypal pattern of the Cumbia from Colombia, as well as a Calypso rhythm from Trinidad.
-- (3,5,2) : Another thirteenth century Persian rhythm by the name of Khafif-e-ramal, as well as a Rumanian folk-dance rhythm.
-- (3,7) : A Ruchenitza rhythm used in a Bulgarian folk-dance.
-- (3,8) : The Cuban tresillo pattern.
-- (4,7) : Another Ruchenitza Bulgarian folk-dance rhythm.
-- (4,9) : The Aksak rhythm of Turkey.
-- (4,11) : The metric pattern used by Frank Zappa in his piece titled Outside Now.
-- (5,6) : Yields the York-Samai pattern, a popular Arab rhythm.
-- (5,7) : The Nawakhat pattern, another popular Arab rhythm.
-- (5,8) : The Cuban cinquillo pattern.
-- (5,9) : A popular Arab rhythm called Agsag-Samai.
-- (5,11) : The metric pattern used by Moussorgsky in Pictures at an Exhibition.
-- (5,12) : The Venda clapping pattern of a South African children’s song.
-- (5,16) : The Bossa-Nova rhythm necklace of Brazil.
-- (7,8) : A typical rhythm played on the Bendir (frame drum).
-- (7,12) : A common West African bell pattern.
-- (7,16,14) : A Samba rhythm necklace from Brazil.
-- (9,16) : A rhythm necklace used in the Central African Republic.
-- (11,24,14) : A rhythm necklace of the Aka Pygmies of Central Africa.
-- (13,24,5) : Another rhythm necklace of the Aka Pygmies of the upper Sangha.

-- ========================================
-- mi-UGens Examples
-- ========================================

-- ========================================
-- Synths
-- ========================================

-- omi (Ominous Voice)
d1  $ s "omi" <| note "a [~ g] [c b] [g gs]"
    # octave "<3 4 5 6 7 8>"
    # sustain "{1 2 1}%8"

-- braids (miBraids)
d1  $ s "braids" <| note "a [~ g] [c b] [g gs]"
    # octave "<3 4 5 6 7 8>"
    # sustain "{1 2 1}%8"
    # model (slow 48 $ run 48)
    # timbre (slow 3 sine)
    # color (saw)

-- plaits (miPlaits)
d1  $ s "plaits" <| note "a [~ g] [c b] [g gs]"
    # octave "<3 4 5 6 7 8>"
    # sustain "{1 2 1}%8"
    # engine (slow 16 $ run 16)
    # timbre (slow 3 sine)
    # harm (slow 4 saw)
    # morph (slow 9 saw)
    # level (slow 8 sine)

-- tides (miTides)
d1  $ s "tides" <| note "a [~ g] [c b] [g gs]"
    # octave "<3 4 5 6 7 8>"
    # sustain "{1 2 1}%8"
    # mode "<0 1 2 3>"
    # shift (slow 5 sine)
    # tidesshape (slow 7 sine)
    # tidessmooth (range 0.2 1 $ slow 8 sine)
    # slope (slow 3 sine)

-- ========================================
-- Effects
-- ========================================

-- verb (miVerb - global reverb)
d1  $ s "[[bd sd], linnhats*8]"
    # verb 0.9 0.9 0.1 0.2

-- clouds (miClouds - granular processor)
d1  $ s "[[bd sd], [linnhats*8]]"
    # clouds 0.1 0.5 0.05 0.1
    # cloudsblend 1 0.2 0.33 0.8

-- elements (miElements - modal synthesis)
d1  $ s "[[bd sd], linnhats*8]"
    # elementsstrength "0.9"
    # elementspitch (slow 3 sine)
    # elementsblowlevel 0.6
    # elementsblowtimb (slow 5 sine)
    # elementsflow "{0.3 0.6 0.7}"
    # elementsstrikelevel 1
    # elementsstriketimb 0.1
    # elementsmallet rand
    # elementseasteregg "[1 | 0 | 0]"
    # elementsmodel "[0 | 1]"
    # elementscontour (slow 5 saw)
    # elementsgeom 2
    # elementsbright (slow 7 saw)
    # elementsdamp 0
    # elementspos 0.314
    # elementsspace 0.9

-- mu (miMu - low frequency distortion)
d1  $ s "bass1:1"
    # mu 5
    # gain 0.7

-- rings (miRings - resonator)
d1  $ s "[[bd sd], linnhats*8]"
    # rings 100 rand 0.7 (slow 3 sine) 0.9
    # ringsmodel "[0|1]"
    # ringspoly "[0|1|0]"
    # ringsinternal "[1|0|1|1]"

-- ripples (miRipples - analog 4 pole filter)
d1  $ s "[[bd sd], linnhats*8]"
    # ripplescf 0.4
    # ripplesreson (range 0.5 1 $ slow 7 sine)
    # ripplesdrive "{1 3 5}%2"

-- warps (miWarps - wave-shaping and cross-modulation)
d1  $ s "[[bd sd], linnhats*8]"
    # warpstimb (slow 5 sine)
    # warpsosc "<0 1 2 3>"
    # warpsalgo "<0 1 2 3 4 5 6 7 6>"
    # warpsfreq (slow 3 saw)
    # warpseasteregg 1

hush

drawLine "a b*2 d"


-- ============================================
-- CONVOLUTION REVERB QUICK START
-- ============================================
-- 52 Impulse Responses: 0-11 (core), 12-41 (creative), 42-51 (bass-heavy EDM)
-- Parameters: convolvemix (wet/dry), convolveir (0-51), convolvedamp (brightness),
--             convolvepredel (pre-delay), convolvelevel (output boost/cut)

-- Test 1: Simple cathedral reverb
d1 $ s "bd cp" # convolve 0.5 # convolveir 6

-- Test 2: Bass-heavy dubstep space
d1 $ s "bass*4" # note "c1" # convolve 0.8 # convolveir 42 # gain 1.2

-- Test 3: Create a Super IR (2-way convolution)
makeSuperIR [6, 42]
-- Watch SuperCollider Post window for: "✓ Added at index: 52"
-- Then use it:
-- d1 $ s "bass*4" # note "c2" # convolve 0.9 # convolveir 52

hush


-- 80Hz bass boost (IR 42)
d1 $ s "bass" # note "c" # convolve 0.1 # convolveir 7

-- ADVANCED: TRIPLE LAYERED CONVOLUTION - 3 patterns with different IRs and LFO modulation
-- Layer 1: Sub bass with bass-boost IR, slowly morphing
d1 $ s "bass:3*4" # note "c1 c1 g1 g1"
   # convolve (range 0.7 0.95 $ slow 16 sine)                  -- Deep wet mix, slow pulse
   # convolveir "<42 43 44>"                                   -- Cycle bass-boost/extra-bass/deep (IRs 42-44)
   # lpf 150 # resonance 0.4
   # gain 1.1

-- Layer 2: Mid bass with club/techno IRs, faster movement
d2 $ s "bass:5*8" # note "c2 e2 f2 g2"
   # convolve (range 0.3 0.9 $ slow 8 (sine * saw))            -- Complex modulation
   # convolveir "<45 46 47 48>"                                -- Cycle club/music-club/techno/dance (IRs 45-48)
   # lpf (range 200 2000 $ slow 6 sine)                        -- Filter sweep
   # resonance 0.3
   # pan (slow 4 saw)                                          -- Stereo movement
   # gain 0.9

-- Layer 3: High percussion with creative IRs, rapid changes
d3 $ s "cp*4 hh*8"
   # convolve (range 0.2 0.6 $ fast 2 square)                  -- Rhythmic convolution pulse
   # convolveir (choose [13, 14, 15, 17, 18])                  -- Random creative IRs: cassette/tape/vehicles
   # hpf 800
   # pan (fast 8 sine)                                         -- Fast stereo
   # gain 0.7

-- Cycle through bass IRs (42-51)
d1 $ s "bass*4" # note "c2 a1 f2 e2" # convolve 0.7 # convolveir "<42 43 44 45 46 47 48 49 50 51>"


-- ============================================
-- ALL CONVOLUTION PARAMETERS DEMO
-- ============================================

-- 1. CONVOLVE (wet/dry mix) - Basic parameter
d1 $ s "bd cp" # convolve 0.5 # convolveir 6  -- 50% wet cathedral

-- 2. CONVOLVEIR (IR selection) - Choose space (0-51)
d1 $ s "bd cp" # convolve 0.5 # convolveir 0   -- Hall
d1 $ s "bd cp" # convolve 0.5 # convolveir 42  -- Bass boost
d1 $ s "bd cp" # convolve 0.5 # convolveir 13  -- Cassette

-- 3. CONVOLVEDAMP (high frequency damping) - 0=dark, 1=bright
d1 $ s "hh*8" # convolve 0.7 # convolveir 6
   # convolvedamp 0.2    -- Dark, muffled reverb tail (800Hz cutoff)

d1 $ s "hh*8" # convolve 0.7 # convolveir 6
   # convolvedamp 0.9    -- Bright, airy reverb tail (16kHz+)

-- Modulate damping with LFO
d1 $ s "arpy*8" # convolve 0.6 # convolveir 6
   # convolvedamp (range 0.1 0.9 $ slow 4 sine)  -- Breathing brightness

-- 4. CONVOLVEPREDEL (pre-delay) - 0-0.2 seconds delay before reverb
d1 $ s "cp*4" # convolve 0.8 # convolveir 6
   # convolvepredel 0.05   -- 50ms pre-delay (clear separation)

d1 $ s "sn*2" # convolve 0.7 # convolveir 0
   # convolvepredel 0.15   -- 150ms pre-delay (huge space feel)

-- Modulate pre-delay with LFO
d1 $ s "bd*4" # convolve 0.6 # convolveir 6
   # convolvepredel (range 0 0.1 $ slow 8 sine)  -- Moving space

-- 5. CONVOLVELEVEL (output level) - 0-2 (default 1.0)
d1 $ s "bass*4" # note "c2" # convolve 0.7 # convolveir 42
   # convolvelevel 1.5     -- Boost reverb output by 50%

d1 $ s "hh*16" # convolve 0.5 # convolveir 0
   # convolvelevel 0.6     -- Subtle, quiet reverb

-- Modulate level with LFO
d1 $ s "arpy*8" # convolve 0.8 # convolveir 6
   # convolvelevel (range 0.5 1.8 $ slow 6 saw)  -- Swelling reverb

-- ============================================
-- COMBINED PARAMETER EXAMPLES
-- ============================================

-- Example 1: Evolving Cathedral with all parameters
d1 $ s "arpy*8" # n (irand 8)
   # convolve (range 0.4 0.9 $ slow 8 sine)           -- Pulsing wet/dry
   # convolveir 6                                      -- Cathedral
   # convolvedamp (range 0.2 0.8 $ slow 6 saw)        -- Dark to bright
   # convolvepredel (range 0 0.08 $ slow 12 square)   -- Pre-delay variation
   # convolvelevel 1.3                                 -- Slightly boosted

-- Example 2: Dubstep Bass with controlled reverb
d1 $ s "bass*4" # note "c1 e1 f1 g1"
   # convolve 0.7                                      -- Heavy wet
   # convolveir "<42 43 44>"                           -- Cycle bass IRs
   # convolvedamp 0.3                                  -- Keep it dark/heavy
   # convolvepredel 0.02                               -- Tight pre-delay
   # convolvelevel 1.6                                 -- Boost for impact
   # lpf 200

-- Example 3: Hi-hats with dynamic space
d1 $ s "hh*16"
   # convolve (range 0.3 0.7 $ fast 2 square)         -- Rhythmic convolution
   # convolveir (choose [13,14,15])                    -- Random tape IRs
   # convolvedamp (range 0.6 0.95 $ fast 4 sine)      -- Fast brightness sweep
   # convolvepredel 0                                  -- No pre-delay
   # convolvelevel (range 0.7 1.3 $ slow 3 saw)       -- Level variation

-- Example 4: ALL PARAMETERS + LFO MODULATION
d1 $ s "bass*8" # note "c2 e2 f2 g2"
   # convolve (range 0.4 0.9 $ slow 8 sine)           -- LFO: wet/dry
   # convolveir "<45 46 47 48>"                        -- Pattern: club IRs
   # convolvedamp (range 0.2 0.8 $ slow 6 saw)        -- LFO: brightness
   # convolvepredel (range 0 0.1 $ slow 12 square)    -- LFO: pre-delay
   # convolvelevel (range 1.0 1.8 $ slow 10 sine)     -- LFO: output level
   # lpf (range 300 2000 $ slow 5 sine)               -- Bonus filter LFO
   # pan (slow 4 saw)


-- ============================================
-- makeSuperIR - FULLY AUTOMATIC Super IR Creation!
-- ============================================
-- Just call makeSuperIR from Tidal - everything is automatic!
-- SuperCollider receives the indices, convolves them, and adds the result to the IR array.
-- Watch the SuperCollider Post window to see the magic happen!

-- Example 1: Cathedral + Bass boost (2-way convolution)
makeSuperIR [6, 42]
-- SC Post window shows:
-- → Received IR index: 6 (total: 1)
-- → Received IR index: 42 (total: 2)
-- === Processing Super IR from 2 indices: [6, 42] ===
-- Convolving 1/1: IR6 * IR42
--   ✓ Convolved
-- ✓✓✓ Super IR COMPLETE! Created from 2 IRs ✓✓✓
-- ✓ Added at index: 52
-- Use in Tidal: # convolveir 52

-- Now use it:
d1 $ s "bass*4" # note "c2" # convolve 0.1 # convolveir 52

-- Example 2: Triple bass punch (3-way convolution)
makeSuperIR [42, 43, 44]
-- Creates hybrid of: 80Hz boost + BBE bass + Deep enhance
-- Use with: # convolveir 53

d1 $ s "kick*4" # convolve 0.8 # convolveir 53 # gain 1.2

-- Example 3: Tape saturation stack
makeSuperIR [13, 14, 15]
-- Cassette + 15ips tape + Clean tape
-- Use with: # convolveir 54

d1 $ s "808*8" # note "c1 e1 g1 c2" # convolve 0.6 # convolveir 54

-- Example 4: Presets (defined in convolution-params.hs)
superMassive      -- Cathedral + bass (same as makeSuperIR [6, 42])
superBass         -- Triple bass: [42, 43, 44]
superVintage      -- Triple tape: [13, 14, 15]
superClub         -- Club spaces: [45, 46, 47, 48]
superMega         -- 30-way MEGA convolution! [42,43,44,45,46,47,48,49,50,51,0,1,2,3,4,5,6,7,8,9,10,11,13,14,15,17,18,27,33,35]

-- Run a preset:
superClub
-- Watch SC Post window for processing, then use the reported index

d1 $ s "bass*16" # note "c2" # convolve 0.9 # convolveir 55

-- ============================================
-- 30-WAY MEGA CONVOLUTION
-- ============================================
-- The ultimate super IR: convolves 30 carefully selected IRs together!
-- This creates an incredibly complex and unique reverb space.

superMega
-- This convolves: [42,43,44,45,46,47,48,49,50,51,0,1,2,3,4,5,6,7,8,9,10,11,13,14,15,17,18,27,33,35]
-- Processing takes ~15-30 seconds (watch SC Post window)
-- Creates a hybrid of:
--   - All 10 bass-heavy EDM IRs (42-51)
--   - Core spaces: hall, church, room, plate, spring, chamber, cathedral, concert, studio, ambient, warehouse, space (0-11)
--   - Creative tape saturation (13-15)
--   - Vehicle acoustics (17-18)
--   - Bottle hall (27)
--   - Arena (33)
--   - Vintage blues (35)

-- Then use with massive bass:
d1 $ s "bass*8" # note "c1 d1 f1 g1" # convolve 0.95 # convolveir 56 # gain 1.5 # lpf 400

-- Or layer with other effects:
d1 $ s "kick*4"
   # convolve 0.8 # convolveir 56
   # lpf (range 200 800 $ slow 8 sine)
   # gain 1.3

-- POWER USER: Create custom mega IRs
-- Choose any combination of IRs (up to 30+)
makeSuperIR [6, 7, 8, 42, 43, 44, 13, 14, 15, 27, 33, 35]
-- 12-way convolution: Cathedrals + Bass + Tape + Creative spaces


hush

d1 silence

d1 $ sound "pluck:0 latibro:5 industrial:30 pluck:5 industrial:21 diphone:1 latibro:4 industrial:14"

di $ sound "bd cp bd cp"
d2 $ sound "hh hh hh hh hh hh hh hh"
d3 $ sound "rave arp: 0"

d1 $ sound "kc <metal:6 metal:0 metal:4 metal:5 metal:1> <feel:0 feel:2 feel:1> [kc kc bd bd]"

d1 $ sound "[kc kc][[kcikc] [[kc kc] kc] kc]"
d1 $ sound "kc kc . [kc kc] [[kc kc] kcl kc"

d1 $ sound "[hh cp hh cp, bd kc kc bd kc, hh hh [sn sn sn] hh hh"

d1 $ s "[909*8, hh*16, oc*3, 808/2]/2"

d1 $ s "[808*2]"

d1 $ s "[hh [hh*3] hh]*2 [909 [909*5] 909]"

d1 $ rev (s "[hh [hh*3] hh]*2 [909 [909*5] 909]")

d1 $ every 4 (rev) (s "arpy:0 arpy:1 arpy:2 arpy: 3" )
-- every function
--1. number
--2. function
--3. a pattern

d1 $ s "tink*4. tink*2" #coarse "82 15.49"
# delay "0.9"
# delayt "0.9"
# delayfb "0.1"

d1 $ s "gtr:2"
# leslie "0.5"
# lrate "2"
# lsize "1"

d1 $ s "gtr:2"
# fshift "10"
# fshiftnote "2"

d1 $ s "sax*10"
# att "1"
# hold "1"
# rel "1"
# speed "1"
# room "0.9"
# size "0.8"

d1 $ s "sax*10"
#att "0.0001"
# hold "0.1"
# rel "0.001"
#speed "1 2 3 1 2 2.25 1.5 0.5 0.25"
# room "0.9"
# size "0.99"

d1 $ s "sax/2"
# tremr "250"
# tremdp "1"

d1 $ s "sax/2"
# vowel '"<a e i o u>"

d1 $ s "sax/4"
# att "2"
# hold "0.1"
# rel "2"
# room "1"
# size "0.9"
# speed "<1 2.25 0.5>"
# tremdp "0.7"
# tremr "8"
# vowel "<a e i o u>"
d2 $ s "[hh*16, [cp • [cp [[cp cp] cp]]] • cp]"
# speed "<2 4 3 6 1 8>"
d3 $ s "bd . bd[bd*8]"
# speed "<2 4 3 6 1 8>"

hush

d1 $ s "[blip*16]/2"
# speed "[1 0.15 1,75 2 4 3.5 3.25 0.25 2 0.75 3.5 6 4 3 2 1.75 1 2 1.75 2 4 3.75 3.25 1.25 2 1,75 3.5 6 4 3 2 1.55 ]/8"
# room "1"
# size "0.4"
# delay "0.7"
# delayfb "0.4"
# delayt "0.9"
# crush "4"
# phasr "20"
# phasdp "4"
# lpf "5000"
# 1pq "0.2 0.4"
# amp "0.1"

d2 $ s "[bass® . bass0:3 bass0:1 bass0:0]"
# bpf "900"
# crush "5 4 8"
# amp "0.4"

d3 $ s "[feel*16. feel*3. feel*8. feel*5 feel*5. feel*8]/3"
# bpf "800"
# bpq "25 40 50 60"
# crush "5 7"
# amp "0.4"

d4 $ s "sax"
# ring "1"
# ringf "[600 400 300 200]/4"
# ringdf "100"
# speed "[1 2 3 4]/4"
# amp "0.2"
# cut "1"




d1 $ s "peri: 8"
d1 $ n "8 7 1 2 3 4 7 8 9 2 1 1 1 1 1 1 1" # s "peri"
d1 $ s "peri:8 peri:7 peri:1 peri:2 peri:3 peri:4 peri:5 peri:6 peri:7 peri:8 peri:9 peri:2"


d1 $ speed "<0.25 -0.5> <1.5 1.25 1.75>"
# s "jungbass:3"
# amp 0.2
d2 $ crush "4 2 8 9 6 9" # s "ht"
# lpf "<2000 4400 970 1000>"
# lpq "<0.225 0.3 0.2>"
# amp 0.1
d3 $ s "psr*8" # n"<[0 5] [1 3 2] [4 5 7] [1]>"
# hpf "<200 500 700 900>"
# hpq "<0.3 0.2 0.4>"
# amp 0.2

d4 $ s "padlong/40"
# speed 0.5
# amp 0.3




d1 $ s "click(5,6) click(5, [7 91/2)" # n "0 1"
# crush "3"
# hpf 2000
# hpq 0.4
d2 $ s "click(5,6) click(5, (7 9]/2)" # n "4"
# crush "3"
# hpf 6000
# hpq 0.5
d3 $ s "glitch(5,9)" # n "35 • 2 5 8"
# crush "4"
# amp "0.2"
# delay "0.2"
# delayfb "0.6"
d4 $ s "cp(5,9)"
# crush "7 6 8 9 6 3"
# hpf "<2000 300 300 1000>"
# hpq "<0.4 0.3 0.2>"
# amp 0.1
d5 $ s "cp (5,9)"
# n "5"
# crush "7 6 8 9 6 3"
# hpf "<3000 6000>"
# hpq "<0.2 0.3 0.4>"
# amp 0.1
d6 $ s "bd"
# crush "<3 7 5 8>"
setcps (160/60/4)

-- YOI WAVE FROM SAW with LFO cutoff/resonance and downsampling
d1 $ s "supersquare*8" # n "c3"
  # cutoff (range 200 3000 $ slow 4 $ sine)     -- LFO modulates cutoff
  # resonance (range 0.1 0.7 $ slow 3 $ sine)   -- LFO modulates resonance peak
  # shape 0.8                                    -- Add some distortion for "yoi" character
  # crush 6                                      -- Downsampling/bitcrush
  # legato 1
  # voice (slow 2 $ range 0 0.5 $ saw)         -- Modulate waveform shape from saw to square

-- YOI WAVE - IRREGULAR MODULATION VERSION
d1 $ s "supersquare*<8 16 12>" # n "c3 <e3 g3> <c3 f3>"
  # cutoff (range 150 4000 $ (slow 3.7 sine * slow 5.2 saw))  -- Complex irregular LFO
  # resonance (range 0.05 0.85 $ slow 2.8 $ (sine + saw) / 2) -- Mixed waveform LFO
  # shape (range 0.4 0.95 $ slow 7 $ square)                  -- Pulsing distortion
  # crush "<4 6 8 5>"                                          -- Varying bitcrush depth
  # legato "<1 0.5 2>"                                         -- Irregular note lengths
  # voice (slow 4.3 $ range 0.2 0.7 $ (saw * sine))          -- Complex wave morphing
  # pan (slow 8 $ sine)                                        -- Slow stereo movement
  # room (range 0.1 0.4 $ slow 11 $ sine)                     -- Subtle reverb modulation

-- YOI WAVE - SMOOTH BASS VERSION with modulation
d1 $ s "supersquare*<8 12 16>" # n "<c2 [e2 g2] <f2 bf2> [c2 d2]>"
  # cutoff (range 200 2000 $ (slow 4.5 sine * slow 6.3 sine))               -- Smooth dual sine LFO
  # resonance (range 0.3 0.7 $ slow 3.2 $ sine)                             -- Gentle resonance sweep
  # shape (range 0.5 0.75 $ slow 8 $ sine)                                  -- Warm distortion
  # crush 5                                                                  -- Subtle bitcrush texture
  # legato "<1.2 1 0.8>"                                                     -- Smooth note lengths
  # voice (slow 5 $ range 0.25 0.6 $ sine)                                  -- Gentle wave morphing
  # pan (slow 12 $ sine)                                                     -- Slow stereo drift
  # room (range 0.2 0.4 $ slow 16 $ sine)                                   -- Subtle reverb movement
  # lpf (range 300 800 $ slow 7 $ sine)                                     -- Low-pass for bass focus
  # gain 1.15                                                                -- Boost for presence
  # octave 2

-- YOI WAVE - DEEP SUB BASS VERSION (lower frequencies)
d1 $ s "supersquare*<8 12 16>" # n "<c1 [e1 g1] <f1 bf1> [c1 d1]>"
  # cutoff (range 80 600 $ (slow 4.5 sine * slow 6.3 sine))                 -- Lower cutoff range for deep bass
  # resonance (range 0.4 0.75 $ slow 3.2 $ sine)                            -- Boosted resonance for presence
  # shape (range 0.6 0.8 $ slow 8 $ sine)                                   -- Warm saturation
  # crush 5                                                                  -- Subtle bitcrush texture
  # legato "<1.5 1.2 1>"                                                     -- Longer notes for sub weight
  # voice (slow 5 $ range 0.3 0.65 $ sine)                                  -- Wave morphing in low range
  # pan (slow 16 $ sine)                                                     -- Very slow stereo movement
  # room (range 0.15 0.3 $ slow 20 $ sine)                                  -- Subtle reverb
  # lpf (range 120 350 $ slow 9 $ sine)                                     -- Very low-pass for sub focus
  # gain 1.3                                                                 -- Extra gain for sub presence
  # octave 1                                                                 -- Sub bass octave (40-80Hz range)

-- YOI WAVE - DEEP SUB BASS with mi-UGens (rings resonator + ripples filter + mu distortion)
d1 $ s "supersquare*<8 12 16>" # n "<c1 [e1 g1] <f1 bf1> [c1 d1]>"
  # cutoff (range 80 600 $ (slow 4.5 sine * slow 6.3 sine))                 -- Lower cutoff range
  # resonance (range 0.4 0.75 $ slow 3.2 $ sine)                            -- Boosted resonance
  # shape (range 0.6 0.8 $ slow 8 $ sine)                                   -- Warm saturation
  # crush 5                                                                  -- Bitcrush texture
  # legato "<1.5 1.2 1>"                                                     -- Longer notes
  # voice (slow 5 $ range 0.3 0.65 $ sine)                                  -- Wave morphing
  # pan (slow 16 $ sine)                                                     -- Slow stereo movement
  # gain 1.1                                                                 -- Adjusted for mi-UGens processing
  # octave 1
  # rings 60 (slow 11 $ range 0.3 0.8 $ sine) 0.6 (slow 7 $ range 0.4 0.9 $ sine) 0.85  -- Resonator adds harmonic richness
  # ringsmodel 1                                                             -- Sympathetic string model
  # ringspoly 1                                                              -- Polyphonic mode
  # ripplescf (slow 6 $ range 0.2 0.6 $ sine)                               -- Analog filter sweep
  # ripplesreson (range 0.5 0.85 $ slow 5 $ sine)                           -- Filter resonance modulation
  # ripplesdrive (range 1 3 $ slow 9 $ sine)                                -- Analog drive for warmth
  # mu (range 3 6 $ slow 13 $ sine)                                         -- Low frequency distortion/saturation

-- YOI WAVE - CLOUDS (granular texture processor)
d1 $ s "supersquare*<8 12 16>" # n "<c2 [e2 g2] <f2 bf2> [c2 d2]>"
  # cutoff (range 200 1800 $ (slow 4.5 sine * slow 6.3 sine))               -- Smooth dual sine LFO
  # resonance (range 0.3 0.65 $ slow 3.2 $ sine)                            -- Gentle resonance
  # shape (range 0.5 0.7 $ slow 8 $ sine)                                   -- Moderate distortion
  # crush 5                                                                  -- Bitcrush texture
  # legato "<1.2 1 0.8>"                                                     -- Smooth note lengths
  # voice (slow 5 $ range 0.3 0.6 $ sine)                                   -- Wave morphing
  # pan (slow 12 $ sine)                                                     -- Stereo movement
  # gain 0.9                                                                 -- Adjusted for clouds processing
  # octave 2
  # clouds (slow 7 $ range 0.3 0.7 $ sine) (slow 9 $ range 0.4 0.8 $ sine) (slow 11 $ range 0.05 0.15 $ sine) 0.1  -- Granular magic
  # cloudsblend (slow 13 $ range 0.6 0.95 $ sine) (slow 5 $ range 0.2 0.4 $ sine) 0.33 (slow 17 $ range 0.6 0.9 $ sine)  -- Blend controls

-- YOI WAVE - BRAIDS (macro oscillator with multiple synthesis models)
d1 $ s "braids*<8 12 16>" # note "<c2 [e2 g2] <f2 bf2> [c2 d2]>"
  # legato "<1.2 1 0.8>"                                                     -- Smooth note lengths
  # model (slow 32 $ run 48)                                                 -- Slowly cycle through all 48 synthesis models
  # timbre (slow 5 $ range 0.3 0.8 $ sine)                                  -- Timbre modulation
  # color (slow 7 $ range 0.2 0.9 $ (sine * saw))                           -- Color/tone modulation
  # pan (slow 12 $ sine)                                                     -- Stereo movement
  # crush 5                                                                  -- Bitcrush for character
  # cutoff (range 300 2000 $ slow 6 $ sine)                                 -- Filter sweep
  # resonance (range 0.3 0.6 $ slow 4 $ sine)                               -- Filter resonance
  # gain 0.95                                                                -- Balanced level
  # room (range 0.2 0.4 $ slow 16 $ sine)                                   -- Subtle reverb

-- YOI WAVE - PLAITS (macro oscillator with 16 synthesis engines)
d1 $ s "plaits*<8 12 16>" # note "<c2 [e2 g2] <f2 bf2> [c2 d2]>"
  # legato "<1.2 1 0.8>"                                                     -- Smooth note lengths
  # engine (slow 16 $ segment 16 $ run 16)                                  -- Cycle through all 16 engines
  # timbre (slow 5 $ range 0.3 0.8 $ sine)                                  -- Timbre control
  # harm (slow 7 $ range 0.2 0.8 $ saw)                                     -- Harmonics modulation
  # morph (slow 9 $ range 0.3 0.85 $ (sine * saw))                          -- Morphing between modes
  # level (slow 6 $ range 0.6 0.95 $ sine)                                  -- Level modulation
  # pan (slow 12 $ sine)                                                     -- Stereo movement
  # crush 5                                                                  -- Bitcrush
  # cutoff (range 300 2200 $ slow 8 $ sine)                                 -- Filter sweep
  # gain 0.9                                                                 -- Balanced level
  # room (range 0.2 0.45 $ slow 14 $ sine)                                  -- Reverb wash

-- YOI WAVE - TIDES (tidal modulator as oscillator/LFO)
d1 $ s "tides*<8 12 16>" # note "<c2 [e2 g2] <f2 bf2> [c2 d2]>"
  # legato "<1.2 1 0.8>"                                                     -- Smooth note lengths
  # mode (slow 32 $ segment 4 "<0 1 2 3>")                                  -- Cycle through 4 modes
  # shift (slow 5 $ range 0.2 0.8 $ sine)                                   -- Frequency shift/modulation
  # tidesshape (slow 7 $ range 0.3 0.9 $ sine)                              -- Waveform shape
  # tidessmooth (range 0.3 0.9 $ slow 8 $ sine)                             -- Smoothness control
  # slope (slow 9 $ range 0.2 0.8 $ saw)                                    -- Slope modulation
  # pan (slow 12 $ sine)                                                     -- Stereo movement
  # crush 5                                                                  -- Bitcrush
  # cutoff (range 250 1800 $ slow 6 $ sine)                                 -- Filter sweep
  # resonance (range 0.3 0.65 $ slow 4 $ sine)                              -- Filter resonance
  # gain 1.0                                                                 -- Balanced level
  # room (range 0.25 0.4 $ slow 15 $ sine)                                  -- Subtle reverb

-- YOI WAVE - VERB (with miVerb global reverb effect)
d1 $ s "supersquare*<8 12 16>" # n "<c2 [e2 g2] <f2 bf2> [c2 d2]>"
  # cutoff (range 300 1800 $ (slow 4.5 sine * slow 6.3 sine))               -- Smooth dual sine LFO
  # resonance (range 0.3 0.65 $ slow 3.2 $ sine)                            -- Gentle resonance
  # shape (range 0.5 0.7 $ slow 8 $ sine)                                   -- Moderate distortion
  # crush 5                                                                  -- Bitcrush texture
  # legato "<1.2 1 0.8>"                                                     -- Smooth note lengths
  # voice (slow 5 $ range 0.3 0.6 $ sine)                                   -- Wave morphing
  # pan (slow 12 $ sine)                                                     -- Stereo movement
  # gain 0.85                                                                -- Lower for verb space
  # octave 2
  # verb (slow 11 $ range 0.7 0.95 $ sine) (slow 13 $ range 0.8 0.95 $ sine) (slow 7 $ range 0.05 0.2 $ sine) (slow 9 $ range 0.15 0.3 $ sine)  -- miVerb: time, damping, input gain, diffusion

-- YOI WAVE - EXTREME DISTORTION & CHAOS VERSION
d1 $ degradeBy 0.2 $ every 3 (rev) $ every 5 (fast "<2 1.5>")
  $ s "supersquare*<7 13 11 16 9>" # n "<c3 [e3 fs3] <g3 bf3> [c3 d3 f3]>"
  # cutoff (range 100 5000 $ (slow 2.7 sine * slow 4.3 square + slow 6.1 saw) / 2)  -- Chaotic triple LFO
  # resonance (range 0.2 0.95 $ slow 1.9 $ (sine * square))                         -- Aggressive resonance
  # shape (range 0.7 1.0 $ slow 5.3 $ (saw + square) / 2)                          -- Heavy distortion
  # distort (range 0.3 0.8 $ slow 3.1 $ sine)                                       -- Extra distortion layer
  # crush (choose [2, 3, 4, 5, 7, 9])                                               -- Random extreme bitcrush
  # coarse (choose [1, 2, 4, 8, 16, 32])                                            -- Harsh downsampling
  # legato "<0.3 1.5 0.7 2 0.5>"                                                    -- Erratic note lengths
  # voice (slow 3.7 $ range 0.1 0.9 $ (saw * sine + square) / 2)                   -- Extreme wave morphing
  # squiz "<0 2 4 8 16>"                                                             -- Pitch glitching
  # pan (fast 3 $ (sine * saw))                                                      -- Chaotic panning
  # room (range 0.05 0.5 $ slow 7.7 $ square)                                       -- Jumping reverb
  # hpf (range 20 400 $ slow 11 $ saw)                                              -- Filter out lows randomly
  # gain (range 0.9 1.1 $ fast 8 $ sine)                                            -- Volume fluctuation
  # speed "<1 0.99 1.01 0.98>"                                                      -- Detuning drift

-- PSYDUB EXAMPLE - Deep bass, delays, and dub effects
do
  -- Heavy sub bass with filter sweeps
  d1 $ slow 2 $ n "c1 [~ c1] f1 [~ g1]" # s "bass1:18"
    # lpf (range 80 600 $ slow 8 $ sine)
    # lpq 0.3
    # shape 0.6
    # legato 2
    # gain 1.2
    # room 0.3
    # sz 0.8
  -- Melodic delayed lead with psychedelic panning
  d2 $ slow 4 $ n "<c5 [d5 f5] [g5 a5] [bf5 c6]>" # s "superpwm"
    # voice (slow 6 $ range 0.3 0.8 $ sine)
    # cutoff (range 800 4000 $ slow 5 $ saw)
    # resonance 0.4
    # delay (range 0.6 0.9 $ slow 7 $ sine)      -- Modulating delay amount
    # delayt "<0.375 0.5 0.25 0.75>"              -- Polyrhythmic delay times
    # delayfb 0.6                                  -- Heavy feedback
    # pan (slow 3 $ sine)                          -- Slow pan
    # room 0.6
    # sz 0.9
    # gain 0.8
  -- Dub chords with echo
  d3 $ sometimesBy 0.7 (# crush 5) $ slow 8 $ n "<c4'min7 f4'min7 g4'dom7 bf4'maj7>" # s "supermandolin"
    # lpf 2000
    # delay 0.7
    # delayt 0.5
    # delayfb 0.5
    # room 0.7
    # sz 0.95
    # gain 0.7
    # pan (slow 5 $ saw)
  -- Kick with dub processing
  d4 $ s "bd(3,8,<0 2>)"
    # shape 0.5
    # lpf 120
    # delay "<0 0.8>"                             -- Delay on some kicks
    # delayt 0.375
    # delayfb 0.4
    # gain 1.1
  -- Psydub percussion with reverb wash
  d5 $ degradeBy 0.3 $ s "~ cp ~ [cp cp?]"
    # hpf (range 2000 8000 $ fast 2 $ sine)
    # delay 0.8
    # delayt "<0.25 0.5 0.125>"
    # delayfb 0.7
    # room 0.9
    # sz 0.99
    # pan (fast 4 $ sine)
    # gain 0.6


d1 $ s "frog:0(5,8)" 
# begin 0.1 
# end 0.12 
# speed 2 
# legato 2
# resonance 0.2
# cutoff (range 200 1000 $ (slow 4.5 sine * slow 6.3 sine))               -- Smooth dual sine LFO
# resonance (range 0.3 0.7 $ slow 3.2 $ sine)                             -- Gentle resonance sweep
# shape (range 0.5 0.75 $ slow 8 $ sine)                                  -- Warm distortion
# crush 5     
-- # coarse 8                                                             -- Subtle bitcrush texture
# legato "<2>"                                                     -- Smooth note lengths
# voice (slow 5 $ range 0.25 0.6 $ sine)                                  -- Gentle wave morphing
# pan (slow 12 $ sine)                                                     -- Slow stereo drift
# room (range 0.2 0.4 $ slow 16 $ sine)                                   -- Subtle reverb movement
# lpf (range 100 150 $ slow 7 $ sine)                                     -- Low-pass for bass focus
# gain 0.8                                                              -- Boost for presence
# up "-36"

d2 "hh hh hh hh hh [hh hh hh]"

d3 "bass ~ ~"

d1 $ stack
  [ note "<d4 c4 a3 bf3>" # s "bass1:18" # legato 1 # metatune 1
  , note "[~ d5'min'o]*4" # s "gtr" # release 0.4
  ] # gain 0.9


d5 $ s "tabla:1*10" 
-- #att "0.0001"
-- # hold "0.1"
-- # rel "0.001"
-- # speed (cat [choose [1, 2, 3, 4, 5]] <> "1 2 2.25 1.5 0.5 0.25")
-- # room "0.9"
-- # size "0.99"
-- # gain 1.3

d5 silence
d4 silence
d3 silence
d2 silence

d1 silence
hush

d1 $ slow 5.77 $ note "f-3 g-3 as-3 a-3 as-3 c-2 ds-2 d-2 ds-2 f-2 e-2 f-2 f-2 fs-2 f-2 fs-2 f-2" # s "superpiano"

d1 $ slow 2.72 $ note "cs-3@4 cs-3 cs-3 cs-2 c-2 cs-2 cs-2 cs-2 d-2 d-2 a-3 a-3 a-1 a-3 as-3 as-3 f-3 f-3 f-3 f-3 fs-3 a-1 ~ ~ ~ ~ c-3"  
# speed 2
# s "superpiano"

d1 $ slow 3 $ note "a-1*3 ~  b-1" 
# s "gtr" 
# att "5"
# hold "1"
# rel "0"
# gain 1.15

hush

once $ n (stretch "d2 ~ fs2@2 g2 ~ a2 ~ b2 ~ c3 ~ ~ ds3@2 [ds4] ~ e3") 
# s "superpiano" 
# cps (10/60/4) 
-- delay with nudge
# nudge 0
-- # att "5"
-- # hold "1"
-- # rel "0"
-- # gain 2

-- all $ (|+ nudge 0.2)

once $ n (stretch "d2 ~ e2 ~ fs2 ~ g2 a2 ~ b2 cs3 d3@3") # s "superpiano" # cps (45/60/4)

d1 $ n "[a,c@2] b" # s "superpiano"

hush

once $ n (stretch "[e2,fs2,gs2,b2]@2 ~ ~ ~ ~ ~ ~ a2 ~ ~ ~ [as2] gs2 ~ ~ [fs3 d3] ~ e2@3") # s "superpiano" # cps (29/60/4)

d1 $ note "c d e"  # s "gtr" 


d1 $ n "c'min9'8" # sound "superpiano"

d1 $ n "c'min9'o" # sound "superpiano"

d1 $ n "c'min9'i2" # sound "superpiano"

d1 $ stack
  [ note "<d4 c4 a3 bf3>" # s "bass1:18" # legato 1 # metatune 1
  , note "[~ d5'min'o]*4" # s "superpiano" # release 0.4
  ] # cps 0.35

-- ============================================================================
-- COMPRESSOR EXAMPLES - NEW DYNAMICS PROCESSING EFFECTS
-- ============================================================================
-- Four compressor types: #compress (standard), #sidechain (pumping),
-- #limit (brick wall), #multiband (frequency-specific)
-- All use wetness/dryness architecture like convolution reverb

-- BASIC COMPRESSION - Add punch to drums
d1 $ s "bd*4 sn*2"
  # compress 0.5           -- 50% wet/dry mix
  # compressratio 4        -- 4:1 compression ratio
  # compressthresh 0.5     -- Medium threshold
  # compressmakeup 1.3     -- Boost output 30%

hush

-- GENTLE "GLUE" COMPRESSION - Mix bus style
d1 $ s "[bd sn cp hh, bass:1*4, arpy*8]"
  # glueCompress           -- Preset: gentle 2:1 compression

-- PUNCHY DRUM COMPRESSION - Aggressive attack
d2 $ s "bd*4"
  # punchyCompress         -- Preset: fast attack, 4:1 ratio, makeup gain

-- HEAVY LIMITING - Prevent clipping on loud synths
d3 $ note "c a f e" # s "superpiano" # gain 1.5
  # limit 0.8             -- 80% wet
  # limitthresh 0.9       -- Limit above 90%
  # limitrelease 0.01     -- Fast release

-- SIDECHAIN PUMPING - Classic EDM/French house effect
d4 $ s "bass:1*8"
  # pump                   -- Preset: rhythmic ducking effect

-- Manual sidechain with custom settings
d5 $ s "[bass:5 bass:7]*4" # legato 2
  # sidechain 0.8          -- Strong pumping
  # sidechainratio 6       -- 6:1 ratio (aggressive)
  # sidechainattack 0.01   -- Fast attack (instant duck)
  # sidechainrelease 0.2   -- Slow release (longer pump)

-- MULTIBAND COMPRESSION - Control different frequency ranges independently
-- Great for full mixes or complex bass sounds
d6 $ s "breaks165"
  # multiband 0.6              -- 60% wet
  # multibandlowratio 6        -- Heavy bass compression (60-200Hz)
  # multibandmidratio 3        -- Moderate mid compression (200-2kHz)
  # multibandhighratio 2       -- Light high compression (2kHz+)
  # multibandlowfreq 150       -- Low/mid crossover at 150Hz
  # multibandhighfreq 2000     -- Mid/high crossover at 2kHz

-- TIGHT BASS CONTROL - Compress sub frequencies heavily
d7 $ note "<c1 f1 g1 bf1>" # s "bass1:18" # legato 2
  # tightBass               -- Preset: multiband with 6:1 on lows

-- VOCAL COMPRESSION - Transparent dynamics control
d8 $ s "vocal*4"
  # vocalCompress           -- Preset: 3:1, soft knee, gentle attack

-- PARALLEL COMPRESSION ("New York Compression")
-- Blend heavy compression with dry signal for punch + dynamics
d9 $ s "bd sn cp hh*4"
  # compress 0.3            -- Only 30% wet (mostly dry)
  # compressthresh 0.2      -- Very low threshold (compress everything)
  # compressratio 10        -- Heavy compression
  # compressmakeup 2        -- Big makeup gain on the compressed signal

hush

-- EXTREME COMPRESSION - Squashed sustain effect
d10 $ note "c4 e4 g4" # s "supermandolin"
  # compress 0.7
  # compressthresh 0.1      -- Very low threshold
  # compressratio 20        -- Maximum ratio (limiting)
  # compressattack 0.001    -- Instant attack
  # compressrelease 0.05    -- Fast release
  # compressmakeup 1.8      -- Heavy makeup gain

-- BREATHING EFFECT - Slow attack/release for pumping
d11 $ s "pad*8" # legato 4
  # compress 0.6
  # compressratio 5
  # compressattack 0.05     -- Slower attack (50ms)
  # compressrelease 0.5     -- Slow release (500ms) = breathing

-- COMBINING COMPRESSION WITH OTHER EFFECTS
-- Compression before reverb = tighter reverb tail
d12 $ s "sn*4"
  # compress 0.5 # compressratio 4 # compressmakeup 1.2
  # room 0.8 # sz 0.9

-- Compression after distortion = control harsh peaks
d13 $ note "c2 e2 g2" # s "supersaw" # shape 0.8
  # compress 0.6 # compressratio 6 # compressmakeup 1.1

-- DRUM & BASS PRODUCTION EXAMPLE - Full mix with compression
do
  setcps (174/60/4)
  -- Kick with limiting
  d1 $ s "bd(3,8)" # lpf 120
    # limit 0.9 # limitthresh 0.95
  -- Snare with punch compression
  d2 $ s "~ sn ~ [sn sn?]"
    # punchyCompress
  -- Hi-hats with gentle compression
  d3 $ s "hh*8" # gain 0.9
    # compress 0.3 # compressratio 2
  -- Bass with multiband compression + sidechain
  d4 $ note "<c2 f2 g2 bf2>*4" # s "bass1:18" # legato 2
    # tightBass           -- Control sub frequencies
    # sidechain 0.6       -- Duck to kick
  -- Stabs with heavy limiting
  d5 $ sometimesBy 0.5 (# note "c4 e4 g4")
    $ s "tabla:1" # gain 1.3
    # limit 0.8 # limitthresh 0.9

-- MASTER BUS COMPRESSION - Apply to individual channels
-- Note: Presets are already ControlPatterns, use them with # after your pattern
d1 $ s "bd sn" # glueCompress     -- Applies gentle 2:1 compression
d2 $ s "bass:1*4" # glueCompress  -- Apply to each channel individually

-- COMPRESSION + CONVOLUTION REVERB - Professional studio chain
d16 $ s "sn*4"
  # compress 0.5 # compressratio 4      -- Compress first
  # convolve 0.4 # convolveir 0         -- Then reverb (hall)
  # compressmakeup 1.2                  -- Makeup gain

-- CREATIVE: Compression on reverb send only
d17 $ s "cp*4"
  # room 0.9 # sz 0.99                  -- Heavy reverb
  # compress 0.8 # compressratio 8      -- Compress the reverb tail

-- CREATIVE: Sidechain with custom rhythm (not just 4/4)
d18 $ s "bass:5*8" # legato 3
  # sidechain 0.9
  # sidechainattack 0.005   -- Very fast duck
  # sidechainrelease 0.15   -- Creates triplet-feeling pump

hush

-- DYNAMIC MODULATION - Animate compression parameters
d19 $ s "breaks165"
  # compress 0.6
  # compressratio (slow 8 $ range 2 10 $ sine)      -- Ratio sweeps from 2:1 to 10:1
  # compressattack (slow 4 $ range 0.001 0.05 $ saw) -- Attack time modulation

-- MULTIBAND FOR BASS MUSIC - Heavy sub control
d20 $ note "<c1 f1 g1 bf1>" # s "bass1:18" # legato 2 # shape 0.7
  # multiband 0.8
  # multibandlowratio 10      -- Extreme sub compression (keeps bass tight)
  # multibandmidratio 4       -- Moderate mid compression
  # multibandhighratio 2      -- Light high compression
  # multibandlowfreq 100      -- Split at 100Hz
  # multibandhighfreq 3000    -- Split at 3kHz

-- PARALLEL MULTIBAND - Blend for massive drums
d21 $ s "bd*4"
  # multiband 0.4            -- Only 40% wet = parallel multiband
  # multibandlowratio 20     -- Squash the compressed bass
  # multibandmidratio 8      -- Squash mids
  # multibandhighratio 6     -- Squash highs

-- SOFT KNEE vs HARD KNEE - Compare compression character
-- Soft knee (0.8) = gentle, musical
d22 $ s "sn*4"
  # compress 0.5 # compressratio 6
  # compressknee 0.8         -- Soft, gradual compression

-- Hard knee (0.0) = aggressive, obvious
d23 $ s "sn*4"
  # compress 0.9 # compressratio 6
  # compressknee 5           -- Hard, abrupt compression

-- Stop all patterns
hush

d1 $ n ("<[0,3,7] [0,4,7] [0,4,7] [0,4,7] [0,3,7] [0,4,7] [0,3,7] [0,4,7]>" |+ "<a c d f a e a e>" ) # s "supermandolin" 

d1 $ n ("c e f" |+ "<'maj 'min>") # s "supermandolin"
-- is the same as d1 $ n "<[c'maj e'maj f'maj] [c'min e'min f'min]>" # s "supermandolin"



-- From a simple to a complex rhythm

-- Simple bass drum - snare:
d1 $ sound "bd sn"

-- Let's pick a different snare sample:
d1 $ sound "bd sn:3"

-- Now, we are going to change the rhythm:
d1 $ sound "bd*2 [~ sn:3]"

--And add some toms:
d1 $ sound "bd*2 [[~ lt] sn:3] lt:1 [ht mt*2]"

-- Start to transform, shift a quarter cycle every other cycle:
d1 $ every 2 (0.25 <~) $ sound "bd*2 [[~ lt] sn:3] lt:1 [ht mt*2]"

-- Pattern the shift amount:
d1 $ every 2 ("<0.25 0.125 0.5>" <~) $ sound "bd*2 [[~ lt] sn:3] lt:1 [ht mt*2]"

-- Add some patterned effects:
d1 $ every 2 ("<0.25 0.125 0.5>" <~) $ sound "bd*2 [[~ lt] sn:3] lt:1 [ht mt*2]"
  # squiz "<1 2.5 2>"
  # room (slow 4 $ range 0 0.2 saw)
  # sz 0.5
  # orbit 1

-- More transformation:
d1 $ jux' [id,rev,(# speed 2)] $ every 2 ("<0.25 0.125 0.5>" <~) $ sound "bd*2 [[~ lt] sn:3] lt:1 [ht mt*2]"
  # squiz "<1 2.5 2>"
  # room (slow 4 $ range 0 0.2 saw)
  # sz 0.5
  # orbit 1

## Another rhythmic construction

-- Let's start with a sequence:
d1 $ n "0 0 [2 0] [2 3]" # sound "feel" # speed 1.5

-- We add a bit of flavour:
d1 $ n "0 <0 4> [2 0] [2 3]" # sound "feel" # speed 1.5


-- Swap the samples round every other cycle:
d1 $ every 2 (rot "<1 3 2>") $ n "0 <0 4> [2 0] [2 3]" # sound "feel" # speed 1.5


-- Always worth trying a `jux rev`:
d1 $ jux rev $ every 2 (rot "<1 3 2>") $ n "0 <0 4> [2 0] [2 3]" # sound "feel" # speed 1.5


-- Calm it down a bit by reducing the amount of panning:
d1 $ juxBy 0.4 rev $ every 2 (rot "<1 3 2>") $ n "0 <0 4> [2 0] [2 3]" # sound "feel" # speed 1.5

-- Vary the speed:
d1 $ juxBy 0.4 rev $ every 2 (rot "<1 3 2>") $ n "0 <0 4> [2 0] [2 3]" # sound "feel" # speed "1.75 2"

-- Add an offset `vowel` effect:
d1 $ off 0.25 (# vowel "<a o i>")
  $ juxBy 0.4 rev $ every 2 (rot "<1 3 2>") $ n "0 <0 4> [2 0] [2 3]" # sound "feel" # speed "1.75 2"

-- Let's add another friend:
d1 $ off 0.25 (# vowel "<a o i>")
  $ juxBy 0.4 rev $ every 2 (rot "<1 3 2>") $ n "0 <0 4> [2 0] [2 3]" # sound "feel" # speed "1.75 2"

d2 $ juxBy 0.5 rev $ chunk 4 ((+ speed (1 + sine)) . ply 8) $ note "3(3,8)" # sound "bass"
  # speed "<2 4>"
  # legato 1

hush


d1 $ s "bd*4" # nudge 0.9 -- nudge for this pattern
d2 $ fast 2 $ s "~ sn" # nudge 0.4 -- different value

all $ (|+ nudge 0.2) -- adding 0.2 to the nudge param.
-- that would result in # nudge 1.1 for d1 and 0.6 for d2
nudgeAll 0.2 -- alternative shorthand version

do
  resetCycles
  d1 $ s "bd*4"
  d2 $ s "~ hh ~ hh*2"




-- Arpeggios from notes

-- Start with a simple sequence of notes:
d1 $ n "c a f e"
  # sound "supermandolin"

-- Now, let's play one per cycle:
d1 $ n "<c a f e>"
  # sound "supermandolin"

-- On top of that, put a copy of the sequence, offset in time and pitch:
d1 $ n (off 0.125 (|+ 7) "<c a f e>")
  # sound "supermandolin"

--Add some structure to the original sequence:
d1 $ n (off 0.125 (|+ 7)  "<c*2 a(3,8) f(3,8,2) e*2>")
  # sound "supermandolin"
  # legato 2

--Reverse in one speaker:
d1 $ jux rev $ n (off 0.125 (|+ 7)  "<c*2 a(3,8) f(3,8,2) e*2>")
  # sound "supermandolin"
  # legato 2


-- Let's add another layer:
d1 $ jux rev $ n (off 0.125 (|+ 12) $ off 0.125 (|+ 7)  "<c*2 a(3,8) f(3,8,2) e*2>")
  # sound "supermandolin"
  # legato 2


-- Arpeggios from chords

-- We will start with a C major chord:
d1 $ n "c'maj"
  # sound "supermandolin"
  # legato 2

-- Using the `arp` function to arpeggiate:
d1 $ arp "up" $ n "c'maj"
  # sound "supermandolin"
  # sustain 0.5


-- Let's add another note to the chord:
d1 $ arp "up" $ n "c'maj'4"
  # sound "supermandolin"
  # sustain 0.5

-- Add another chord:
d1 $ arp "up" $ n "c'maj'4 e'min"
  # sound "supermandolin"
  # sustain 0.5


-- Change the arpeggiator:
d1 $ arp "pinkyup" $ n "c'maj'4 e'min"
  # sound "supermandolin"
  # sustain 0.5

-- Oh, and we can also pattern the arpeggiator:
d1 $ arp "<pinkyup down thumbup up>" $ n "c'maj'4 e'min"
  # sound "supermandolin"
  # sustain 0.5


-- Change the chords, add some reverb:
d1 $ jux rev $ arp "<pinkyup down thumbup up>" $ n "<c'maj'4 e4'min'8 f4'maj'4>"
  # sound "supermandolin"
  # sustain 2 # room 0.3 # sz 0.9


-- Add some variety with 'chunk':
d1 $ chunk 4 (|- note 5) $ jux rev $ 
  arp "<pinkyup down thumbup up>" $ n "<c'maj'4 e4'min'8 f4'maj'4>"
  # sound "supermandolin"
  # sustain 2 # room 0.3 # sz 0.9


d1 $ n "<c a f e>" # sound "superpiano"

hush

d1 $ n (stretch "<c4 c2>") # s "piano"

d1 $ note "c a f e" # s "piano" # n 3
d1 $ note "c a f e" # s "piano" # n 3
d1 $ n "c a f e" # s "piano" 